games/surveyor/assets/luts/anvil.3dl
0 64 128 192 256 320 384 448 512 575 639 703 767 831 895 959 1023
0 0 0
0 0 63
0 0 157
0 0 249
0 0 340
0 0 429
0 0 518
0 0 606
0 0 694
0 0 781
0 0 868
0 0 954
0 0 1023
0 0 1023
0 0 1023
0 0 1023
0 0 1023
0 47 0
0 50 53
0 48 148
0 45 241
0 43 331
0 42 420
0 41 509
0 40 597
0 38 684
0 37 771
0 36 857
0 35 943
0 34 1023
0 33 1023
0 32 1023
0 31 1023
0 30 1023
0 122 0
0 129 36
0 128 131
0 126 224
0 124 316
0 122 406
0 119 495
0 117 583
0 115 669
0 113 755
0 112 840
0 110 925
0 109 1009
0 108 1023
0 107 1023
0 106 1023
0 105 1023
0 196 0
0 200 24
0 205 114
0 204 207
0 202 298
0 200 389
0 199 479
0 197 568
0 194 656
0 192 742
0 189 827
0 187 911
0 185 995
0 184 1023
0 182 1023
0 181 1023
0 179 1023
0 270 0
0 271 12
0 282 97
0 280 189
0 278 281
0 277 371
0 275 461
0 273 551
0 271 639
0 270 728
0 268 815
0 265 900
0 263 984
0 261 1023
0 259 1023
0 257 1023
0 255 1023
0 344 0
0 344 0
0 355 80
0 355 172
0 354 263
0 352 354
0 350 444
0 348 533
0 347 622
0 345 710
0 343 798
0 342 886
0 340 973
0 338 1023
0 336 1023
0 334 1023
0 332 1023
0 419 0
0 418 0
0 426 67
0 430 154
0 428 246
0 426 337
0 425 426
0 423 516
0 421 604
0 420 693
0 418 781
0 416 868
0 415 955
0 413 1023
0 411 1023
0 410 1023
0 408 1023
0 494 0
0 493 0
0 498 55
0 504 137
0 502 229
0 501 319
0 499 409
0 497 498
0 496 587
0 494 675
0 492 763
0 491 851
0 489 938
0 487 1023
0 486 1023
0 484 1023
0 482 1023
0 568 0
0 568 0
0 570 44
0 576 123
0 576 212
0 574 302
0 573 392
0 571 481
0 569 570
0 568 658
0 566 746
0 564 834
0 563 921
0 561 1008
0 560 1023
0 558 1023
0 556 1023
0 642 0
0 641 0
0 642 33
0 648 110
0 650 195
0 648 286
0 646 375
0 645 465
0 643 554
0 642 642
0 640 730
0 638 818
0 637 905
0 635 992
0 634 1023
0 632 1023
0 631 1023
0 714 0
0 713 0
0 714 22
0 719 98
0 723 180
0 722 269
0 720 359
0 719 449
0 717 538
0 715 626
0 714 714
0 712 802
0 711 889
0 709 976
0 708 1023
0 706 1023
0 705 1023
0 786 0
0 786 0
0 785 11
0 790 88
0 795 167
0 796 254
0 794 344
0 793 433
0 791 522
0 789 611
0 788 699
0 786 786
0 785 874
0 783 961
0 782 1023
0 781 1023
0 779 1023
0 858 0
0 858 0
0 857 0
0 861 78
0 867 155
0 870 239
0 868 329
0 867 418
0 865 507
0 864 596
0 862 684
0 861 772
0 859 859
0 858 946
0 856 1023
0 855 1023
0 853 1023
0 931 0
0 930 0
0 929 0
0 933 69
0 938 145
0 942 226
0 942 314
0 941 404
0 939 493
0 938 581
0 936 669
0 935 757
0 933 845
0 932 932
0 930 1019
0 929 1023
0 927 1023
0 1003 0
0 1002 0
0 1001 0
0 1004 59
0 1010 134
0 1015 213
0 1016 300
0 1014 389
0 1013 478
0 1011 567
0 1010 655
0 1009 743
0 1007 830
0 1006 917
0 1004 1004
0 1003 1023
0 1001 1023
0 1023 0
0 1023 0
0 1023 0
0 1023 49
0 1023 123
0 1023 201
0 1023 286
0 1023 375
0 1023 464
0 1023 552
0 1023 640
0 1023 728
0 1023 815
0 1023 903
0 1023 990
0 1023 1023
0 1023 1023
0 1023 0
0 1023 0
0 1023 0
0 1023 39
0 1023 112
0 1023 188
0 1023 272
0 1023 360
0 1023 449
0 1023 538
0 1023 626
0 1023 713
0 1023 801
0 1023 888
0 1023 975
0 1023 1023
0 1023 1023
56 0 0
55 0 61
54 0 155
52 0 246
51 0 337
50 0 427
49 0 515
48 0 604
47 0 691
45 0 778
44 0 865
43 0 951
42 0 1023
41 0 1023
40 0 1023
38 0 1023
37 0 1023
48 45 0
47 44 52
46 43 146
45 42 237
43 41 328
42 40 417
41 38 506
40 37 593
38 36 681
37 35 767
36 34 854
35 33 939
34 32 1023
32 31 1023
31 29 1023
30 28 1023
29 27 1023
35 120 0
34 119 39
28 124 128
27 122 221
27 119 312
27 116 402
27 114 490
26 113 577
25 111 663
24 110 749
23 109 834
22 108 919
21 107 1004
19 106 1023
18 104 1023
17 103 1023
16 102 1023
23 194 0
22 193 25
12 202 111
10 200 203
8 199 295
6 197 385
6 195 475
6 192 563
6 189 649
7 187 735
7 185 819
6 183 903
6 182 986
5 181 1023
4 179 1023
3 178 1023
2 177 1023
10 268 0
9 267 11
0 274 97
0 277 186
0 275 277
0 273 368
0 272 458
0 270 547
0 268 636
0 266 723
0 263 808
0 261 892
0 259 975
0 257 1023
0 255 1023
0 254 1023
0 252 1023
0 342 0
0 342 0
0 345 84
0 352 169
0 350 260
0 349 351
0 347 441
0 345 530
0 344 619
0 342 707
0 340 795
0 338 882
0 336 966
0 334 1023
0 332 1023
0 330 1023
0 329 1023
0 417 0
0 417 0
0 418 71
0 426 152
0 425 243
0 423 333
0 422 423
0 420 512
0 418 601
0 417 690
0 415 777
0 413 865
0 412 952
0 410 1023
0 408 1023
0 406 1023
0 404 1023
0 492 0
0 491 0
0 492 59
0 498 138
0 499 226
0 498 316
0 496 406
0 494 495
0 493 584
0 491 672
0 489 760
0 488 848
0 486 935
0 484 1022
0 483 1023
0 481 1023
0 480 1023
0 567 0
0 566 0
0 565 47
0 570 125
0 573 209
0 572 299
0 570 389
0 568 479
0 567 567
0 565 656
0 563 744
0 562 831
0 560 919
0 559 1006
0 557 1023
0 555 1023
0 554 1023
0 640 0
0 639 0
0 638 34
0 642 113
0 646 194
0 646 283
0 644 373
0 642 462
0 641 551
0 639 639
0 638 727
0 636 815
0 634 902
0 633 989
0 631 1023
0 630 1023
0 628 1023
0 712 0
0 712 0
0 710 23
0 713 102
0 718 180
0 719 267
0 718 357
0 716 446
0 715 535
0 713 624
0 712 712
0 710 799
0 709 887
0 707 974
0 706 1023
0 704 1023
0 703 1023
0 784 0
0 784 0
0 783 11
0 785 92
0 790 169
0 793 252
0 792 342
0 790 431
0 789 520
0 787 608
0 786 697
0 784 784
0 783 872
0 781 959
0 780 1023
0 778 1023
0 777 1023
0 857 0
0 856 0
0 855 0
0 857 82
0 862 158
0 866 239
0 866 327
0 865 416
0 863 505
0 862 594
0 860 682
0 859 770
0 857 857
0 856 944
0 854 1023
0 853 1023
0 851 1023
0 929 0
0 929 0
0 928 0
0 929 72
0 933 148
0 938 227
0 940 312
0 939 402
0 937 491
0 936 579
0 934 667
0 933 755
0 931 843
0 930 930
0 928 1017
0 927 1023
0 925 1023
0 1001 0
0 1001 0
0 1000 0
0 1000 61
0 1005 137
0 1010 214
0 1013 298
0 1012 387
0 1011 476
0 1009 565
0 1008 653
0 1006 740
0 1005 828
0 1003 915
0 1002 1002
0 1001 1023
0 999 1023
0 1023 0
0 1023 0
0 1023 0
0 1023 51
0 1023 125
0 1023 202
0 1023 284
0 1023 373
0 1023 461
0 1023 550
0 1023 638
0 1023 726
0 1023 813
0 1023 901
0 1023 987
0 1023 1023
0 1023 1023
0 1023 0
0 1023 0
0 1023 0
0 1023 40
0 1023 114
0 1023 189
0 1023 271
0 1023 358
0 1023 447
0 1023 536
0 1023 624
0 1023 711
0 1023 799
0 1023 886
0 1023 973
0 1023 1023
0 1023 1023
143 0 0
142 0 57
141 0 151
140 0 242
138 0 333
137 0 422
136 0 511
135 0 599
134 0 686
132 0 773
131 0 860
130 0 946
129 0 1023
128 0 1023
126 0 1023
125 0 1023
124 0 1023
135 42 0
134 41 48
133 40 142
131 38 233
130 37 323
129 36 413
128 35 501
126 34 589
125 33 676
124 31 762
123 30 848
122 29 934
120 28 1019
119 27 1023
118 26 1023
117 25 1023
116 23 1023
122 116 0
121 116 34
120 114 127
119 113 218
117 112 308
116 111 396
115 110 484
114 109 571
112 108 657
111 107 743
110 105 828
109 104 913
107 103 998
106 102 1023
105 101 1023
104 100 1023
102 99 1023
109 191 0
108 190 21
107 189 113
101 195 198
102 190 291
101 187 380
101 185 467
100 184 553
99 182 639
98 181 724
97 180 808
95 179 892
94 178 976
93 177 1023
92 176 1023
90 175 1023
89 173 1023
96 265 0
95 264 7
94 263 98
87 268 183
82 270 272
81 268 363
80 266 452
80 263 540
81 260 626
81 258 710
80 256 793
80 254 876
79 253 958
79 252 1023
78 251 1023
77 249 1023
76 248 1023
83 339 0
82 339 0
81 338 84
75 340 170
65 345 255
64 343 345
62 342 435
60 340 524
59 338 613
58 336 700
59 334 784
59 331 868
60 330 950
60 328 1023
60 326 1023
59 325 1023
59 324 1023
70 414 0
70 414 0
68 412 70
64 413 156
50 419 238
47 418 328
45 416 418
43 415 507
41 413 596
40 411 684
38 410 772
37 408 859
37 406 943
38 404 1023
38 402 1023
39 401 1023
39 399 1023
58 489 0
57 488 0
55 487 57
52 487 143
37 492 223
30 492 311
28 491 401
26 489 490
25 487 579
23 486 667
21 484 755
20 483 843
18 481 930
17 479 1017
16 477 1023
16 476 1023
17 474 1023
45 563 0
44 563 0
43 561 43
41 561 130
26 564 210
14 566 294
12 565 384
10 563 473
8 562 562
7 560 650
5 558 738
4 557 826
2 555 913
0 554 1000
0 552 1023
0 550 1023
0 549 1023
33 636 0
32 636 0
31 634 31
29 633 118
16 636 197
0 640 279
0 639 368
0 637 457
0 636 546
0 634 634
0 633 722
0 631 810
0 629 897
0 628 984
0 626 1023
0 625 1023
0 623 1023
21 708 0
20 708 0
19 707 19
17 705 106
6 708 186
0 712 266
0 713 352
0 711 441
0 710 530
0 708 619
0 707 707
0 705 794
0 704 882
0 702 969
0 701 1023
0 699 1023
0 698 1023
9 781 0
9 780 0
7 779 7
6 778 95
0 780 176
0 784 254
0 787 337
0 786 426
0 784 515
0 783 604
0 781 692
0 780 780
0 778 867
0 777 954
0 775 1023
0 774 1023
0 772 1023
0 853 0
0 853 0
0 852 0
0 850 84
0 852 165
0 856 242
0 860 324
0 860 412
0 858 501
0 857 589
0 855 677
0 854 765
0 852 852
0 851 940
0 849 1023
0 848 1023
0 847 1023
0 926 0
0 925 0
0 924 0
0 923 72
0 924 154
0 928 231
0 932 311
0 934 397
0 932 486
0 931 574
0 929 663
0 928 750
0 926 838
0 925 925
0 923 1012
0 922 1023
0 921 1023
0 998 0
0 998 0
0 996 0
0 995 61
0 995 141
0 999 218
0 1004 297
0 1007 383
0 1006 471
0 1005 560
0 1003 648
0 1002 736
0 1000 823
0 999 910
0 997 997
0 996 1023
0 994 1023
0 1023 0
0 1023 0
0 1023 0
0 1023 49
0 1023 129
0 1023 205
0 1023 283
0 1023 368
0 1023 457
0 1023 545
0 1023 633
0 1023 721
0 1023 809
0 1023 896
0 1023 983
0 1023 1023
0 1023 1023
0 1023 0
0 1023 0
0 1023 0
0 1023 38
0 1023 117
0 1023 191
0 1023 269
0 1023 353
0 1023 442
0 1023 531
0 1023 619
0 1023 707
0 1023 794
0 1023 881
0 1023 968
0 1023 1023
0 1023 1023
228 0 0
227 0 53
226 0 147
225 0 238
223 0 329
222 0 418
221 0 507
220 0 594
219 0 682
217 0 768
216 0 855
215 0 940
214 0 1023
213 0 1023
211 0 1023
210 0 1023
209 0 1023
220 38 0
219 37 44
218 36 138
216 35 229
215 34 319
214 33 408
213 31 496
211 30 584
210 29 670
209 28 757
208 27 842
207 26 928
205 24 1013
204 23 1023
203 22 1023
202 21 1023
