games/surveyor/assets/luts/anvil.3dl
0 128 256 384 512 639 767 895 1023
0 0 0
0 0 157
0 0 340
0 0 518
0 0 694
0 0 868
0 0 1023
0 0 1023
0 0 1023
0 122 0
0 128 131
0 124 316
0 119 495
0 115 669
0 112 840
0 109 1009
0 107 1023
0 105 1023
0 270 0
0 282 97
0 278 281
0 275 461
0 271 639
0 268 815
0 263 984
0 259 1023
0 255 1023
0 419 0
0 426 67
0 428 246
0 425 426
0 421 604
0 418 781
0 415 955
0 411 1023
0 408 1023
0 568 0
0 570 44
0 576 212
0 573 392
0 569 570
0 566 746
0 563 921
0 560 1023
0 556 1023
0 714 0
0 714 22
0 723 180
0 720 359
0 717 538
0 714 714
0 711 889
0 708 1023
0 705 1023
0 858 0
0 857 0
0 867 155
0 868 329
0 865 507
0 862 684
0 859 859
0 856 1023
0 853 1023
0 1003 0
0 1001 0
0 1010 134
0 1016 300
0 1013 478
0 1010 655
0 1007 830
0 1004 1004
0 1001 1023
0 1023 0
0 1023 0
0 1023 112
0 1023 272
0 1023 449
0 1023 626
0 1023 801
0 1023 975
0 1023 1023
143 0 0
141 0 151
138 0 333
136 0 511
134 0 686
131 0 860
129 0 1023
126 0 1023
124 0 1023
122 116 0
120 114 127
117 112 308
115 110 484
112 108 657
110 105 828
107 103 998
105 101 1023
102 99 1023
96 265 0
94 263 98
82 270 272
80 266 452
81 260 626
80 256 793
79 253 958
78 251 1023
76 248 1023
70 414 0
68 412 70
50 419 238
45 416 418
41 413 596
38 410 772
37 406 943
38 402 1023
39 399 1023
45 563 0
43 561 43
26 564 210
12 565 384
8 562 562
5 558 738
2 555 913
0 552 1023
0 549 1023
21 708 0
19 707 19
6 708 186
0 713 352
0 710 530
0 707 707
0 704 882
0 701 1023
0 698 1023
0 853 0
0 852 0
0 852 165
0 860 324
0 858 501
0 855 677
0 852 852
0 849 1023
0 847 1023
0 998 0
0 996 0
0 995 141
0 1004 297
0 1006 471
0 1003 648
0 1000 823
0 997 997
0 994 1023
0 1023 0
0 1023 0
0 1023 117
0 1023 269
0 1023 442
0 1023 619
0 1023 794
0 1023 968
0 1023 1023
312 0 0
310 0 143
307 0 324
305 0 502
302 0 677
300 0 849
298 0 1020
295 0 1023
293 0 1023
291 110 0
289 108 119
286 105 299
283 103 474
281 101 646
278 99 817
276 96 985
273 94 1023
271 92 1023
265 259 0
263 257 90
260 255 267
257 252 439
255 250 609
252 248 776
250 246 942
247 244 1023
244 242 1023
239 408 0
237 406 62
234 404 236
223 406 407
224 401 580
223 398 746
222 396 909
221 393 1023
219 391 1023
214 556 0
212 554 36
209 552 209
198 552 376
186 552 552
183 548 728
182 545 900
183 541 1023
184 538 1023
190 701 0
188 699 12
186 697 186
176 697 352
155 700 521
152 697 697
149 694 873
146 691 1023
144 688 1023
169 847 0
167 845 0
165 843 162
159 842 327
130 848 491
123 846 668
120 843 843
117 840 1017
114 837 1023
151 991 0
149 990 0
147 987 135
142 986 295
112 992 459
94 994 639
91 991 814
88 988 988
85 985 1023
133 1023 0
131 1023 0
129 1023 110
125 1023 263
95 1023 424
66 1023 608
62 1023 785
59 1023 959
56 1023 1023
477 0 0
475 0 135
473 0 316
470 0 493
468 0 667
465 0 838
463 0 1008
460 0 1023
458 0 1023
456 103 0
454 101 110
451 99 289
448 96 464
446 94 635
443 92 805
441 89 972
438 87 1023
436 85 1023
430 252 0
427 250 81
425 248 257
422 246 429
420 244 598
417 242 765
414 239 930
412 237 1023
409 235 1023
404 402 0
402 400 54
399 398 228
396 396 398
394 393 566
391 391 731
389 389 896
386 386 1023
384 384 1023
379 549 0
377 547 28
374 545 202
372 542 372
365 541 541
365 538 709
363 535 874
362 533 1023
360 530 1023
355 694 0
354 693 5
352 690 179
350 688 349
343 687 515
327 688 688
327 685 861
328 681 1023
330 678 1023
338 840 0
337 838 0
335 836 154
334 834 319
328 833 481
302 836 656
295 834 834
292 831 1008
290 828 1023
325 985 0
324 983 0
322 981 127
321 978 286
317 977 441
285 981 617
266 982 805
263 979 979
260 976 1023
311 1023 0
310 1023 0
309 1023 102
307 1023 254
304 1023 402
272 1023 574
239 1023 773
234 1023 950
231 1023 1023
641 0 0
638 0 127
636 0 307
633 0 483
631 0 656
628 0 827
626 0 996
623 0 1023
621 0 1023
619 96 0
616 94 102
614 92 280
611 89 454
609 87 624
606 85 793
604 82 960
601 80 1023
599 78 1023
592 246 0
590 244 73
587 242 248
585 239 420
582 237 588
580 235 754
577 233 919
575 231 1023
572 228 1023
567 395 0
564 393 46
562 391 220
559 389 390
557 386 557
554 384 723
552 382 888
549 379 1023
547 377 1023
542 542 0
540 540 21
538 538 195
535 535 365
533 533 533
530 530 699
528 528 864
526 526 1023
524 524 1023
520 688 0
518 686 0
517 684 171
515 682 340
514 679 506
509 678 672
509 675 834
509 673 992
509 671 1023
507 833 0
506 832 0
505 829 146
505 827 309
504 825 469
499 823 628
473 825 818
477 821 975
482 818 1023
499 978 0
499 976 0
498 974 119
497 972 275
496 970 428
492 968 580
458 970 771
435 970 970
435 967 1023
491 1023 0
490 1023 0
488 1023 95
487 1023 245
486 1023 391
483 1023 537
447 1023 721
409 1023 936
403 1023 1023
802 0 0
800 0 118
797 0 298
794 0 473
792 0 645
789 0 815
787 0 983
784 0 1023
782 0 1023
780 89 0
778 87 94
775 85 271
772 82 444
770 80 614
767 78 782
765 75 948
762 73 1023
760 71 1023
753 239 0
751 238 65
749 235 240
746 233 410
743 231 578
741 228 744
738 226 909
736 224 1023
733 221 1023
728 389 0
726 387 38
723 384 212
721 382 382
718 379 550
716 377 716
713 374 881
711 372 1023
709 370 1023
704 535 0
702 533 14
699 531 188
697 528 358
695 526 526
692 524 692
691 522 857
689 519 1020
687 517 1023
684 681 0
684 680 0
682 677 164
681 675 332
681 673 496
680 671 658
679 668 817
679 666 973
678 664 1023
678 827 0
677 825 0
677 823 138
677 821 299
677 818 456
676 816 611
672 814 769
674 812 916
675 810 1023
675 972 0
675 970 0
675 968 112
674 965 266
674 963 416
673 961 563
669 959 713
630 960 921
639 956 1023
670 1023 0
669 1023 0
668 1023 89
667 1023 237
666 1023 382
664 1023 525
661 1023 669
621 1023 866
578 1023 1023
962 0 0
959 0 110
957 0 289
954 0 463
951 0 634
949 0 803
946 0 971
944 0 1023
941 0 1023
940 82 0
937 80 85
935 78 262
932 75 434
929 73 603
927 71 770
924 68 936
922 66 1023
919 63 1023
913 233 0
911 231 57
908 229 231
906 226 402
903 224 569
901 221 735
898 219 900
896 217 1023
893 214 1023
888 382 0
886 380 31
883 377 205
881 375 375
878 372 543
876 370 709
874 367 874
871 365 1023
869 363 1023
864 528 0
862 526 7
860 524 181
858 522 351
856 520 519
855 517 684
854 515 847
853 513 1009
852 511 1023
850 675 0
850 673 0
850 671 156
849 669 322
849 666 485
849 664 644
849 662 801
849 660 956
850 658 1023
850 821 0
850 819 0
851 817 130
851 814 289
851 812 444
852 810 596
852 808 746
852 806 893
853 803 1023
853 965 0
853 964 0
853 961 104
853 959 256
853 957 405
852 955 551
852 952 694
848 950 842
849 948 979
849 1023 0
849 1023 0
847 1023 82
846 1023 230
845 1023 374
843 1023 517
841 1023 659
837 1023 801
793 1023 1011
1023 0 0
1023 0 102
1023 0 279
1023 0 453
1023 0 623
1023 0 792
1023 0 958
1023 0 1023
1023 0 1023
1023 76 0
1023 73 77
1023 71 253
1023 68 424
1023 66 593
1023 64 760
1023 61 925
1023 59 1023
1023 56 1023
1023 226 0
1023 224 49
1023 222 223
1023 219 393
1023 217 561
1023 215 727
1023 212 891
1023 210 1023
1023 207 1023
1023 374 0
1023 373 24
1023 370 198
1023 368 368
1023 365 536
1023 363 702
1023 361 867
1023 358 1023
1023 356 1023
1023 522 0
1023 520 1
1021 518 174
1020 515 344
1019 513 510
1019 511 674
1018 509 836
1018 507 995
1018 505 1023
1018 668 0
1018 667 0
1019 665 148
1019 662 313
1020 660 473
1021 658 631
1021 656 785
1022 654 938
1023 651 1023
1023 814 0
1023 812 0
1023 810 122
1023 808 279
1023 806 432
1023 804 582
1023 801 729
1023 799 875
1023 797 1018
1023 959 0
1023 957 0
1023 955 98
1023 953 248
1023 950 395
1023 948 539
1023 946 681
1023 944 822
1023 942 961
1023 1023 0
1023 1023 0
1023 1023 76
1023 1023 223
1022 1023 367
1020 1023 510
1017 1023 652
1015 1023 793
1011 1023 936
1023 0 0
1023 0 93
1023 0 270
1023 0 443
1023 0 613
1023 0 780
1023 0 946
1023 0 1023
1023 0 1023
1023 69 0
1023 66 69
1023 64 244
1023 61 415
1023 59 583
1023 57 750
1023 54 914
1023 52 1023
1023 49 1023
1023 219 0
1023 217 42
1023 215 216
1023 212 386
1023 210 553
1023 208 719
1023 205 884
1023 203 1023
1023 200 1023
1023 368 0
1023 366 17
1023 363 191
1023 361 361
1023 359 529
1023 356 695
1023 354 860
1023 352 1023
1023 350 1023
1023 515 0
1023 514 0
1023 511 167
1023 509 335
1023 507 500
1023 505 663
1023 502 823
1023 500 980
1023 498 1023
1023 662 0
1023 660 0
1023 658 141
1023 656 303
1023 654 461
1023 652 616
1023 649 769
1023 647 919
1023 645 1023
1023 808 0
1023 806 0
1023 804 114
1023 802 269
1023 799 420
1023 797 568
1023 795 714
1023 793 857
1023 791 999
1023 953 0
1023 951 0
1023 949 91
1023 946 240
1023 944 385
1023 942 529
1023 940 670
1023 938 811
1023 935 950
1023 1023 0
1023 1023 0
1023 1023 71
1023 1023 217
1023 1023 362
1023 1023 505
1023 1023 647
1023 1023 788
1023 1023 928
