games/surveyor/assets/luts/anvil.3dl
0 256 512 767 1023
0 0 0
0 0 340
0 0 694
0 0 1023
0 0 1023
0 270 0
0 278 281
0 271 639
0 263 984
0 255 1023
0 568 0
0 576 212
0 569 570
0 563 921
0 556 1023
0 858 0
0 867 155
0 865 507
0 859 859
0 853 1023
0 1023 0
0 1023 112
0 1023 449
0 1023 801
0 1023 1023
312 0 0
307 0 324
302 0 677
298 0 1020
293 0 1023
265 259 0
260 255 267
255 250 609
250 246 942
244 242 1023
214 556 0
209 552 209
186 552 552
182 545 900
184 538 1023
169 847 0
165 843 162
130 848 491
120 843 843
114 837 1023
133 1023 0
129 1023 110
95 1023 424
62 1023 785
56 1023 1023
641 0 0
636 0 307
631 0 656
626 0 996
621 0 1023
592 246 0
587 242 248
582 237 588
577 233 919
572 228 1023
542 542 0
538 538 195
533 533 533
528 528 864
524 524 1023
507 833 0
505 829 146
504 825 469
473 825 818
482 818 1023
491 1023 0
488 1023 95
486 1023 391
447 1023 721
403 1023 1023
962 0 0
957 0 289
951 0 634
946 0 971
941 0 1023
913 233 0
908 229 231
903 224 569
898 219 900
893 214 1023
864 528 0
860 524 181
856 520 519
854 515 847
852 511 1023
850 821 0
851 817 130
851 812 444
852 808 746
853 803 1023
849 1023 0
847 1023 82
845 1023 374
841 1023 659
793 1023 1011
1023 0 0
1023 0 270
1023 0 613
1023 0 946
1023 0 1023
1023 219 0
1023 215 216
1023 210 553
1023 205 884
1023 200 1023
1023 515 0
1023 511 167
1023 507 500
1023 502 823
1023 498 1023
1023 808 0
1023 804 114
1023 799 420
1023 795 714
1023 791 999
1023 1023 0
1023 1023 71
1023 1023 362
1023 1023 647
1023 1023 928
