games/surveyor/assets/luts/ember.3dl
0 128 256 384 512 639 767 895 1023
0 0 0
0 0 37
0 0 148
0 0 274
0 0 410
0 0 555
0 0 708
0 0 868
0 0 1023
0 40 0
0 44 43
0 39 172
0 36 281
0 34 414
0 32 560
0 30 714
0 28 878
0 26 1023
0 160 0
0 168 17
0 174 172
0 170 348
0 166 528
0 159 669
0 154 812
0 151 971
0 148 1023
0 301 0
0 303 2
0 322 142
0 319 318
0 316 508
0 312 708
0 308 914
0 302 1023
0 297 1023
0 461 0
0 462 0
0 480 111
0 479 286
0 475 475
0 472 675
0 468 885
0 465 1023
0 461 1023
0 633 0
0 634 0
0 645 86
0 648 252
0 645 441
0 641 641
0 638 851
0 634 1023
0 630 1023
0 805 0
0 805 0
0 816 64
0 825 217
0 822 406
0 819 606
0 815 815
0 812 1023
0 808 1023
0 976 0
0 975 0
0 986 40
0 1003 186
0 1007 369
0 1003 570
0 1000 779
0 996 996
0 992 1023
0 1023 0
0 1023 0
0 1023 19
0 1023 154
0 1023 332
0 1023 532
0 1023 741
0 1023 959
0 1023 1023
57 0 0
56 0 35
55 0 147
52 0 273
50 0 410
48 0 555
45 0 709
42 0 871
39 0 1023
50 38 0
49 38 31
47 36 144
45 35 271
43 33 410
40 31 558
37 29 714
35 27 880
32 25 1023
30 159 0
29 158 19
13 171 170
10 167 345
11 160 486
12 154 624
11 151 777
10 148 944
9 146 1023
8 300 0
8 300 5
0 319 140
0 316 315
0 313 505
0 309 705
0 304 896
0 298 1023
0 294 1023
0 460 0
0 460 0
0 472 112
0 476 283
0 473 473
0 469 673
0 466 882
0 462 1023
0 458 1023
0 632 0
0 631 0
0 639 91
0 646 249
0 642 439
0 639 639
0 635 848
0 632 1023
0 628 1023
0 804 0
0 803 0
0 810 69
0 821 217
0 820 404
0 817 604
0 813 813
0 809 1023
0 806 1023
0 973 0
0 973 0
0 977 48
0 995 187
0 1004 367
0 1001 567
0 997 777
0 994 994
0 990 1023
0 1023 0
0 1023 0
0 1023 26
0 1023 155
0 1023 329
0 1023 530
0 1023 739
0 1023 956
0 1023 1023
216 0 0
215 0 32
213 0 144
211 0 272
208 0 410
205 0 558
202 0 714
199 0 879
196 0 1023
208 34 0
207 33 28
205 32 142
202 30 271
200 28 411
196 26 562
193 24 722
190 22 891
186 20 1023
184 155 0
183 154 16
181 153 136
178 152 273
175 150 423
172 149 584
169 147 756
165 145 937
162 144 1023
157 297 0
156 297 0
153 296 130
130 308 307
131 302 482
134 296 649
134 292 827
133 290 1015
131 288 1023
130 458 0
129 458 0
127 457 121
102 465 275
94 465 465
90 461 665
88 457 872
89 453 1023
90 449 1023
106 628 0
105 627 0
104 626 104
80 632 251
59 634 431
56 631 631
52 628 840
49 624 1023
45 620 1023
85 798 0
84 797 0
83 795 82
58 802 225
26 811 396
21 809 596
17 805 805
14 802 1022
10 798 1023
64 966 0
63 965 0
62 963 57
39 968 194
1 987 359
0 993 559
0 990 769
0 986 986
0 982 1023
42 1023 0
41 1023 0
40 1023 34
19 1023 163
0 1023 317
0 1023 521
0 1023 731
0 1023 948
0 1023 1023
393 0 0
392 0 28
389 0 142
386 0 271
383 0 412
379 0 562
376 0 722
372 0 891
367 0 1023
383 29 0
382 28 24
379 27 140
376 25 271
373 23 414
369 21 568
365 19 732
361 17 905
356 15 1023
354 151 0
352 150 11
349 149 134
346 148 275
342 146 428
338 145 593
334 143 768
330 141 954
326 139 1023
319 294 0
318 294 0
315 293 128
312 292 279
309 290 443
305 289 620
302 288 807
298 286 1003
294 285 1023
287 455 0
286 454 0
284 453 117
281 452 276
265 455 455
266 451 646
266 448 842
265 445 1023
264 443 1023
263 622 0
262 622 0
261 620 98
259 618 259
240 622 426
226 622 622
223 619 831
223 614 1023
225 610 1023
243 791 0
243 791 0
241 789 76
240 786 232
218 791 391
191 800 587
187 796 796
184 793 1014
180 789 1023
225 957 0
225 957 0
223 954 51
222 951 200
200 957 348
164 977 544
151 981 760
147 977 977
143 973 1023
206 1023 0
206 1023 0
204 1023 29
203 1023 168
182 1023 307
141 1023 492
113 1023 722
110 1023 940
106 1023 1023
580 0 0
579 0 24
576 0 140
572 0 271
568 0 415
563 0 569
558 0 733
553 0 907
548 0 1023
568 24 0
567 23 19
563 22 138
559 20 272
555 18 419
550 16 576
545 14 744
540 12 922
535 10 1023
531 146 0
530 146 7
526 145 133
522 143 276
518 142 433
513 140 602
508 138 782
503 136 971
498 135 1023
491 291 0
490 290 0
486 289 125
482 288 279
478 287 447
474 285 626
470 284 815
466 282 1014
462 280 1023
455 451 0
454 450 0
452 449 112
449 448 272
447 446 446
444 444 629
442 442 820
440 440 1018
438 438 1023
432 617 0
431 616 0
430 614 92
428 612 253
427 610 424
415 611 610
415 607 806
414 603 1004
414 600 1023
415 784 0
414 783 0
413 781 69
412 778 224
411 775 389
393 779 564
371 787 787
371 781 993
374 774 1023
400 948 0
400 948 0
399 945 45
398 942 191
397 939 347
376 944 508
341 966 740
330 968 968
327 964 1023
385 1023 0
384 1023 0
383 1023 23
382 1023 161
380 1023 309
360 1023 457
318 1023 678
293 1023 930
289 1023 1023
773 0 0
772 0 19
768 0 138
763 0 272
758 0 420
752 0 578
746 0 747
740 0 925
734 0 1023
759 18 0
757 17 15
753 16 136
748 14 273
742 12 424
737 10 586
731 8 759
725 6 941
718 4 1023
714 142 0
713 141 1
708 140 131
703 138 278
698 137 439
693 135 612
687 133 795
681 132 988
676 130 1023
668 287 0
667 286 0
663 285 122
659 284 278
655 282 449
651 281 630
646 279 821
642 277 1021
639 275 1023
632 446 0
631 445 0
629 444 107
627 442 267
625 440 440
623 438 623
621 436 814
619 434 1012
617 432 1023
612 610 0
611 610 0
610 608 86
609 606 245
607 603 416
606 601 595
605 598 781
603 595 972
602 593 1023
598 775 0
598 774 0
597 772 63
596 770 215
595 767 378
594 764 548
581 766 740
583 760 922
585 755 1023
588 939 0
588 938 0
587 935 39
586 933 183
585 930 336
584 926 496
566 931 670
529 954 945
535 943 1023
575 1023 0
574 1023 0
573 1023 18
572 1023 154
570 1023 301
569 1023 454
550 1023 614
506 1023 875
483 1023 1023
970 0 0
968 0 14
963 0 136
957 0 274
951 0 426
944 0 589
937 0 762
930 0 945
922 0 1023
952 12 0
950 11 10
945 10 134
939 8 275
933 6 430
926 4 597
919 2 774
912 0 961
905 0 1023
900 137 0
898 136 0
893 135 128
888 133 279
882 132 444
876 130 620
870 128 807
864 126 1004
858 124 1023
850 282 0
849 282 0
845 280 118
841 279 276
837 277 448
833 276 631
829 274 823
826 272 1023
823 270 1023
818 440 0
817 439 0
816 438 101
814 436 261
812 434 434
810 432 617
808 430 807
806 427 1004
805 425 1023
801 603 0
801 602 0
800 600 79
799 598 237
798 596 405
797 593 582
796 590 765
795 587 953
794 584 1023
792 766 0
792 765 0
792 763 56
791 760 206
791 757 366
790 754 533
790 751 706
789 748 882
788 745 1023
786 929 0
786 928 0
785 926 33
784 923 174
784 920 325
783 917 483
782 914 646
767 918 836
770 911 1004
774 1023 0
774 1023 0
773 1023 13
771 1023 148
769 1023 293
768 1023 447
765 1023 607
749 1023 781
702 1023 1023
1023 0 0
1023 0 9
1023 0 134
1023 0 276
1023 0 432
1023 0 600
1023 0 778
1023 0 966
1023 0 1023
1023 6 0
1023 5 4
1023 3 132
1023 2 277
1023 0 436
1023 0 607
1023 0 789
1023 0 980
1023 0 1023
1023 131 0
1023 131 0
1023 129 125
1023 128 279
1023 126 447
1023 124 627
1023 122 817
1023 120 1015
1023 118 1023
1023 277 0
1023 276 0
1023 275 113
1023 273 273
1023 272 446
1023 270 629
1021 268 820
1019 265 1019
1016 263 1023
1012 433 0
1011 433 0
1010 431 94
1008 429 254
1007 427 426
1006 425 608
1004 423 796
1003 420 990
1002 418 1023
1000 595 0
1000 594 0
999 592 72
999 590 227
998 587 394
998 584 568
997 582 748
997 579 932
997 576 1023
996 756 0
996 756 0
996 753 49
996 751 196
996 748 353
996 745 517
995 742 687
995 739 860
995 735 1023
993 919 0
993 918 0
993 916 27
992 913 166
991 911 314
990 908 470
990 905 632
988 902 798
987 899 969
981 1023 0
981 1023 0
979 1023 7
978 1023 142
975 1023 287
973 1023 441
971 1023 601
969 1023 768
956 1023 956
1023 0 0
1023 0 3
1023 0 132
1023 0 278
1023 0 438
1023 0 610
1023 0 793
1023 0 986
1023 0 1023
1023 0 0
1023 0 0
1023 0 129
1023 0 279
1023 0 442
1023 0 617
1023 0 803
1023 0 998
1023 0 1023
1023 125 0
1023 125 0
1023 123 121
1023 122 278
1023 120 449
1023 118 631
1023 116 822
1023 114 1022
1023 112 1023
1023 271 0
1023 270 0
1023 269 106
1023 267 267
1023 265 440
1023 263 623
1023 261 814
1023 259 1012
1023 256 1023
1023 426 0
1023 426 0
1023 424 87
1023 422 246
1023 420 417
1023 417 596
1023 415 782
1023 412 973
1023 410 1023
1023 586 0
1023 585 0
1023 583 64
1023 581 218
1023 578 381
1023 576 552
1023 573 728
1023 570 909
1023 567 1023
1023 747 0
1023 746 0
1023 743 42
1023 741 186
1023 738 340
1023 735 502
1023 732 668
1023 729 839
1023 726 1013
1023 909 0
1023 909 0
1023 906 21
1023 904 158
1023 901 305
1023 899 459
1023 896 619
1023 894 785
1023 891 956
1023 1023 0
1023 1023 0
1023 1023 1
1023 1023 136
1023 1023 281
1023 1023 435
1023 1023 596
1023 1023 762
1023 1023 934
