games/surveyor/assets/luts/ember.3dl
0 64 128 192 256 320 384 448 512 575 639 703 767 831 895 959 1023
0 0 0
0 0 0
0 0 37
0 0 91
0 0 148
0 0 210
0 0 274
0 0 341
0 0 410
0 0 481
0 0 555
0 0 630
0 0 708
0 0 787
0 0 868
0 0 951
0 0 1023
0 0 0
0 0 0
0 0 37
0 0 90
0 0 148
0 0 210
0 0 274
0 0 341
0 0 410
0 0 481
0 0 555
0 0 630
0 0 708
0 0 787
0 0 868
0 0 951
0 0 1023
0 40 0
0 40 0
0 44 43
0 43 118
0 39 172
0 37 223
0 36 281
0 35 345
0 34 414
0 33 485
0 32 560
0 31 636
0 30 714
0 29 795
0 28 878
0 27 963
0 26 1023
0 97 0
0 97 0
0 108 30
0 106 105
0 105 186
0 103 272
0 100 346
0 97 405
0 94 464
0 92 528
0 90 595
0 89 667
0 88 743
0 87 823
0 86 907
0 85 994
0 84 1023
0 160 0
0 160 0
0 168 17
0 175 91
0 174 172
0 172 258
0 170 348
0 169 441
0 166 528
0 163 600
0 159 669
0 156 739
0 154 812
0 152 890
0 151 971
0 149 1023
0 148 1023
0 228 0
0 228 0
0 232 9
0 248 76
0 246 158
0 245 244
0 243 334
0 241 427
0 240 523
0 238 622
0 236 718
0 232 802
0 229 883
0 226 963
0 224 1023
0 221 1023
0 219 1023
0 301 0
0 301 0
0 303 2
0 319 62
0 322 142
0 320 228
0 319 318
0 317 411
0 316 508
0 314 606
0 312 708
0 310 811
0 308 914
0 305 1009
0 302 1023
0 300 1023
0 297 1023
0 379 0
0 379 0
0 380 0
0 392 50
0 401 126
0 399 212
0 397 302
0 396 395
0 394 492
0 392 590
0 391 692
0 389 795
0 387 901
0 385 1009
0 383 1023
0 381 1023
0 378 1023
0 461 0
0 461 0
0 462 0
0 471 40
0 480 111
0 480 196
0 479 286
0 477 379
0 475 475
0 474 574
0 472 675
0 470 779
0 468 885
0 467 992
0 465 1023
0 463 1023
0 461 1023
0 546 0
0 546 0
0 547 0
0 554 30
0 561 98
0 564 179
0 562 269
0 561 362
0 559 458
0 557 557
0 556 659
0 554 762
0 552 868
0 550 975
0 548 1023
0 546 1023
0 544 1023
0 633 0
0 633 0
0 634 0
0 639 21
0 645 86
0 649 163
0 648 252
0 647 345
0 645 441
0 643 540
0 641 641
0 640 745
0 638 851
0 636 958
0 634 1023
0 632 1023
0 630 1023
0 719 0
0 719 0
0 719 0
0 724 11
0 730 75
0 735 148
0 736 234
0 734 327
0 733 424
0 731 523
0 729 624
0 728 728
0 726 833
0 724 941
0 722 1023
0 720 1023
0 718 1023
0 805 0
0 805 0
0 805 0
0 810 2
0 816 64
0 822 135
0 825 217
0 824 310
0 822 406
0 821 505
0 819 606
0 817 710
0 815 815
0 814 923
0 812 1023
0 810 1023
0 808 1023
0 891 0
0 891 0
0 891 0
0 894 0
0 902 52
0 908 122
0 914 201
0 915 292
0 914 388
0 912 487
0 910 588
0 909 692
0 907 797
0 905 905
0 903 1015
0 901 1023
0 899 1023
0 976 0
0 976 0
0 975 0
0 978 0
0 986 40
0 994 109
0 1003 186
0 1008 273
0 1007 369
0 1005 468
0 1003 570
0 1002 673
0 1000 779
0 998 887
0 996 996
0 994 1023
0 992 1023
0 1023 0
0 1023 0
0 1023 0
0 1023 0
0 1023 29
0 1023 95
0 1023 170
0 1023 256
0 1023 351
0 1023 450
0 1023 551
0 1023 655
0 1023 760
0 1023 868
0 1023 978
0 1023 1023
0 1023 1023
0 1023 0
0 1023 0
0 1023 0
0 1023 0
0 1023 19
0 1023 81
0 1023 154
0 1023 238
0 1023 332
0 1023 431
0 1023 532
0 1023 636
0 1023 741
0 1023 849
0 1023 959
0 1023 1023
0 1023 1023
0 0 0
0 0 0
0 0 37
0 0 91
0 0 148
0 0 210
0 0 274
0 0 341
0 0 410
0 0 481
0 0 555
0 0 630
0 0 708
0 0 787
0 0 868
0 0 951
0 0 1023
0 0 0
0 0 0
0 0 37
0 0 90
0 0 148
0 0 210
0 0 274
0 0 341
0 0 410
0 0 481
0 0 555
0 0 630
0 0 707
0 0 787
0 0 868
0 0 951
0 0 1023
0 40 0
0 40 0
0 44 42
0 43 118
0 39 172
0 37 223
0 36 281
0 35 345
0 34 414
0 33 485
0 32 559
0 31 636
0 30 714
0 29 795
0 28 878
0 27 963
0 26 1023
0 97 0
0 97 0
0 107 30
0 106 105
0 105 186
0 103 272
0 100 346
0 97 405
0 94 464
0 92 527
0 90 595
0 89 667
0 88 743
0 87 823
0 86 907
0 85 994
0 84 1023
0 160 0
0 160 0
0 167 17
0 175 91
0 173 172
0 172 258
0 170 348
0 169 441
0 166 528
0 162 600
0 159 668
0 156 738
0 154 812
0 152 889
0 150 970
0 149 1023
0 148 1023
0 228 0
0 228 0
0 232 9
0 247 76
0 246 158
0 244 244
0 243 333
0 241 427
0 240 523
0 238 622
0 236 718
0 232 802
0 229 882
0 226 963
0 223 1023
0 221 1023
0 219 1023
0 301 0
0 301 0
0 303 2
0 319 61
0 322 142
0 320 228
0 319 318
0 317 411
0 315 507
0 314 606
0 312 708
0 310 811
0 308 914
0 305 1009
0 302 1023
0 299 1023
0 297 1023
0 379 0
0 379 0
0 380 0
0 392 50
0 400 126
0 399 212
0 397 302
0 396 395
0 394 491
0 392 590
0 391 692
0 389 795
0 387 901
0 385 1009
0 383 1023
0 381 1023
0 378 1023
0 461 0
0 461 0
0 462 0
0 471 40
0 480 111
0 480 196
0 479 286
0 477 379
0 475 475
0 474 574
0 472 675
0 470 779
0 468 885
0 466 992
0 465 1023
0 463 1023
0 461 1023
0 546 0
0 546 0
0 547 0
0 554 30
0 561 98
0 564 179
0 562 269
0 561 362
0 559 458
0 557 557
0 556 658
0 554 762
0 552 868
0 550 975
0 548 1023
0 546 1023
0 544 1023
0 633 0
0 633 0
0 634 0
0 639 21
0 645 86
0 649 163
0 648 252
0 646 345
0 645 441
0 643 540
0 641 641
0 640 745
0 638 851
0 636 958
0 634 1023
0 632 1023
0 630 1023
0 719 0
0 719 0
0 719 0
0 724 11
0 730 75
0 735 148
0 736 234
0 734 327
0 733 424
0 731 523
0 729 624
0 728 728
0 726 833
0 724 941
0 722 1023
0 720 1023
0 718 1023
0 805 0
0 805 0
0 805 0
0 810 2
0 816 64
0 822 135
0 825 217
0 824 310
0 822 406
0 821 505
0 819 606
0 817 710
0 815 815
0 814 923
0 812 1023
0 810 1023
0 808 1023
0 891 0
0 891 0
0 891 0
0 894 0
0 902 52
0 908 122
0 914 201
0 915 292
0 914 388
0 912 487
0 910 588
0 909 692
0 907 797
0 905 905
0 903 1015
0 901 1023
0 899 1023
0 976 0
0 976 0
0 975 0
0 978 0
0 986 40
0 994 109
0 1003 186
0 1008 273
0 1007 369
0 1005 468
0 1003 570
0 1002 673
0 1000 779
0 998 887
0 996 996
0 994 1023
0 992 1023
0 1023 0
0 1023 0
0 1023 0
0 1023 0
0 1023 29
0 1023 95
0 1023 170
0 1023 256
0 1023 351
0 1023 450
0 1023 551
0 1023 655
0 1023 760
0 1023 868
0 1023 978
0 1023 1023
0 1023 1023
0 1023 0
0 1023 0
0 1023 0
0 1023 0
0 1023 19
0 1023 81
0 1023 154
0 1023 238
0 1023 332
0 1023 431
0 1023 532
0 1023 636
0 1023 741
0 1023 849
0 1023 959
0 1023 1023
0 1023 1023
57 0 0
57 0 0
56 0 35
56 0 89
55 0 147
53 0 209
52 0 273
51 0 340
50 0 410
49 0 481
48 0 555
46 0 631
45 0 709
44 0 789
42 0 871
41 0 954
39 0 1023
57 0 0
57 0 0
56 0 35
55 0 89
54 0 147
53 0 209
52 0 273
51 0 340
50 0 410
48 0 481
47 0 555
46 0 631
44 0 709
43 0 789
42 0 870
40 0 954
39 0 1023
50 38 0
50 38 0
49 38 31
48 37 85
47 36 144
46 35 206
45 35 271
44 34 339
43 33 410
41 32 482
40 31 558
39 30 635
37 29 714
36 28 796
35 27 880
33 26 966
32 25 1023
40 96 0
40 96 0
40 95 26
29 103 102
28 101 179
30 96 235
31 93 293
31 92 355
31 90 422
30 89 495
29 88 571
28 88 650
27 87 732
26 86 816
24 85 902
23 84 990
22 83 1023
30 159 0
30 159 0
29 158 19
16 170 87
13 171 170
12 169 256
10 167 345
10 164 420
11 160 486
12 157 553
12 154 624
11 152 699
11 151 777
11 149 859
10 148 944
9 147 1023
9 146 1023
19 227 0
19 227 0
18 226 12
6 235 71
0 243 155
0 242 241
0 240 331
0 238 424
0 237 520
0 234 609
0 230 689
0 227 767
0 224 846
0 222 929
0 220 1015
0 218 1023
0 217 1023
8 300 0
8 300 0
8 300 5
0 306 61
0 319 140
0 318 226
0 316 315
0 314 409
0 313 505
0 311 604
0 309 705
0 307 804
0 304 896
0 301 986
0 298 1023
0 296 1023
0 294 1023
0 378 0
0 378 0
0 378 0
0 382 53
0 394 124
0 396 210
0 395 300
0 393 393
0 391 489
0 390 588
0 388 689
0 386 793
0 384 898
0 382 1004
0 380 1023
0 377 1023
0 375 1023
0 460 0
0 460 0
0 460 0
0 463 46
0 472 112
0 478 193
0 476 283
0 474 376
0 473 473
0 471 571
0 469 673
0 468 776
0 466 882
0 464 990
0 462 1023
0 460 1023
0 458 1023
0 545 0
0 545 0
0 545 0
0 547 38
0 554 101
0 560 178
0 560 266
0 558 360
0 556 456
0 555 555
0 553 656
0 551 760
0 549 865
0 548 973
0 546 1023
0 544 1023
0 542 1023
0 632 0
0 632 0
0 631 0
0 633 28
0 639 91
0 644 164
0 646 249
0 644 342
0 642 439
0 641 538
0 639 639
0 637 743
0 635 848
0 634 956
0 632 1023
0 630 1023
0 628 1023
0 718 0
0 718 0
0 717 0
0 718 19
0 724 80
0 729 152
0 733 233
0 732 325
0 730 421
0 729 520
0 727 622
0 725 725
0 723 831
0 722 938
0 720 1023
0 718 1023
0 716 1023
0 804 0
0 804 0
0 803 0
0 804 8
0 810 69
0 815 139
0 821 217
0 822 307
0 820 404
0 818 502
0 817 604
0 815 707
0 813 813
0 811 921
0 809 1023
0 808 1023
0 806 1023
0 889 0
0 889 0
0 888 0
0 889 0
0 894 59
0 901 126
0 908 202
0 913 290
0 911 385
0 910 484
0 908 586
0 906 689
0 904 795
0 903 903
0 901 1012
0 899 1023
0 897 1023
0 973 0
0 973 0
0 973 0
0 973 0
0 977 48
0 986 112
0 995 187
0 1003 272
0 1004 367
0 1003 466
0 1001 567
0 999 671
0 997 777
0 996 884
0 994 994
0 992 1023
0 990 1023
0 1023 0
0 1023 0
0 1023 0
0 1023 0
0 1023 37
0 1023 98
0 1023 171
0 1023 255
0 1023 348
0 1023 447
0 1023 549
0 1023 652
0 1023 758
0 1023 866
0 1023 975
0 1023 1023
0 1023 1023
0 1023 0
0 1023 0
0 1023 0
0 1023 0
0 1023 26
0 1023 85
0 1023 155
0 1023 236
0 1023 329
0 1023 428
0 1023 530
0 1023 633
0 1023 739
0 1023 847
0 1023 956
0 1023 1023
0 1023 1023
134 0 0
134 0 0
133 0 34
132 0 88
131 0 146
130 0 208
129 0 272
128 0 340
126 0 410
125 0 482
124 0 556
122 0 633
121 0 711
119 0 792
118 0 874
116 0 959
115 0 1023
133 0 0
133 0 0
133 0 34
132 0 88
131 0 146
129 0 207
128 0 272
127 0 340
126 0 409
124 0 481
123 0 556
122 0 632
120 0 711
119 0 791
117 0 874
116 0 959
