games/surveyor/assets/luts/ember.3dl
0 256 512 767 1023
0 0 0
0 0 148
0 0 410
0 0 708
0 0 1023
0 160 0
0 174 172
0 166 528
0 154 812
0 148 1023
0 461 0
0 480 111
0 475 475
0 468 885
0 461 1023
0 805 0
0 816 64
0 822 406
0 815 815
0 808 1023
0 1023 0
0 1023 19
0 1023 332
0 1023 741
0 1023 1023
216 0 0
213 0 144
208 0 410
202 0 714
196 0 1023
184 155 0
181 153 136
175 150 423
169 147 756
162 144 1023
130 458 0
127 457 121
94 465 465
88 457 872
90 449 1023
85 798 0
83 795 82
26 811 396
17 805 805
10 798 1023
42 1023 0
40 1023 34
0 1023 317
0 1023 731
0 1023 1023
580 0 0
576 0 140
568 0 415
558 0 733
548 0 1023
531 146 0
526 145 133
518 142 433
508 138 782
498 135 1023
455 451 0
452 449 112
447 446 446
442 442 820
438 438 1023
415 784 0
413 781 69
411 775 389
371 787 787
374 774 1023
385 1023 0
383 1023 23
380 1023 309
318 1023 678
289 1023 1023
970 0 0
963 0 136
951 0 426
937 0 762
922 0 1023
900 137 0
893 135 128
882 132 444
870 128 807
858 124 1023
818 440 0
816 438 101
812 434 434
808 430 807
805 425 1023
792 766 0
792 763 56
791 757 366
790 751 706
788 745 1023
774 1023 0
773 1023 13
769 1023 293
765 1023 607
702 1023 1023
1023 0 0
1023 0 132
1023 0 438
1023 0 793
1023 0 1023
1023 125 0
1023 123 121
1023 120 449
1023 116 822
1023 112 1023
1023 426 0
1023 424 87
1023 420 417
1023 415 782
1023 410 1023
1023 747 0
1023 743 42
1023 738 340
1023 732 668
1023 726 1013
1023 1023 0
1023 1023 1
1023 1023 281
1023 1023 596
1023 1023 934
