games/surveyor/assets/luts/home.3dl
0 128 256 384 512 639 767 895 1023
0 0 0
0 0 151
0 0 313
0 0 473
0 0 632
0 0 789
0 0 945
0 0 1023
0 0 1023
0 128 0
0 132 135
0 129 311
0 126 487
0 123 661
0 121 831
0 119 988
0 117 1023
0 116 1023
0 267 0
0 279 103
0 276 278
0 272 452
0 269 624
0 266 795
0 263 962
0 259 1023
0 257 1023
0 404 0
0 421 74
0 420 245
0 417 418
0 414 591
0 410 762
0 407 933
0 404 1023
0 401 1023
0 540 0
0 559 51
0 564 212
0 561 386
0 557 558
0 554 729
0 551 900
0 548 1023
0 545 1023
0 676 0
0 697 32
0 707 181
0 704 354
0 701 527
0 698 698
0 695 869
0 692 1023
0 689 1023
0 812 0
0 832 22
0 848 157
0 849 325
0 846 497
0 843 669
0 840 840
0 837 1011
0 834 1023
0 949 0
0 968 16
0 988 137
0 994 296
0 991 469
0 988 640
0 985 811
0 982 982
0 979 1023
0 1023 0
0 1023 11
0 1023 118
0 1023 270
0 1023 440
0 1023 612
0 1023 783
0 1023 953
0 1023 1023
127 0 0
126 0 148
125 0 309
124 0 469
124 0 627
123 0 783
122 0 938
121 0 1023
120 0 1023
119 125 0
118 124 134
117 123 293
116 121 449
115 120 603
114 119 756
113 118 907
112 117 1023
111 115 1023
109 264 0
108 263 117
87 267 269
85 264 443
85 260 612
85 257 776
85 255 935
86 253 1023
87 251 1023
98 401 0
97 399 101
57 411 237
52 409 410
49 405 582
46 402 753
46 399 920
47 395 1023
47 392 1023
87 537 0
86 536 87
36 552 210
21 552 377
18 549 550
15 546 721
12 543 892
9 540 1023
7 537 1023
76 673 0
75 672 75
17 691 188
0 697 346
0 694 519
0 691 691
0 688 862
0 685 1023
0 682 1023
65 810 0
65 809 65
2 831 170
0 840 320
0 839 490
0 836 662
0 833 833
0 830 1003
0 827 1023
56 947 0
55 946 55
0 968 158
0 981 297
0 983 461
0 981 633
0 978 804
0 975 975
0 972 1023
47 1023 0
46 1023 45
0 1023 149
0 1023 275
0 1023 433
0 1023 605
0 1023 776
0 1023 946
0 1023 1023
268 0 0
268 0 144
267 0 304
266 0 463
265 0 620
265 0 775
264 0 929
263 0 1023
263 0 1023
262 121 0
261 120 129
260 119 287
259 118 442
259 117 595
258 115 746
257 114 896
257 113 1023
256 112 1023
254 260 0
254 259 112
253 258 266
252 256 416
251 255 566
250 254 713
249 252 860
248 251 1005
248 250 1023
246 397 0
245 396 96
244 394 247
223 399 400
223 395 567
223 392 728
223 389 884
223 387 1023
224 385 1023
235 533 0
234 532 83
232 531 233
199 540 371
187 540 540
184 537 712
184 533 879
185 530 1023
186 527 1023
224 670 0
223 669 72
222 668 222
178 681 347
158 685 510
155 682 682
152 679 853
149 676 1023
147 673 1023
214 807 0
213 806 62
212 805 212
162 822 328
134 828 483
126 827 653
123 824 824
120 821 995
117 818 1023
205 944 0
204 943 52
203 942 201
152 960 313
114 970 458
97 972 624
94 969 796
92 966 966
89 963 1023
197 1023 0
196 1023 42
196 1023 190
147 1023 300
97 1023 434
71 1023 596
66 1023 767
63 1023 937
60 1023 1023
409 0 0
409 0 139
408 0 299
407 0 457
407 0 612
407 0 766
406 0 919
406 0 1023
405 0 1023
404 118 0
404 117 124
404 115 280
403 114 434
403 113 586
402 112 736
402 110 885
401 109 1023
401 108 1023
399 256 0
399 255 107
398 254 260
398 252 410
397 251 558
396 250 705
395 249 851
395 247 996
394 246 1023
392 393 0
391 392 92
390 391 242
389 389 390
388 388 537
387 387 684
386 386 830
384 385 975
383 383 1023
381 530 0
380 528 79
379 527 229
378 526 378
359 530 530
359 527 693
359 524 852
360 522 1004
361 520 1023
370 666 0
369 666 68
368 665 219
367 664 367
338 672 505
323 673 673
323 670 842
324 666 1006
324 663 1023
360 804 0
360 803 59
359 802 209
358 801 357
320 813 485
298 817 645
291 815 815
288 813 986
287 809 1023
353 941 0
352 940 49
352 939 198
351 938 345
310 952 466
278 959 617
263 960 787
260 957 957
257 954 1023
347 1023 0
346 1023 39
346 1023 187
345 1023 332
304 1023 449
261 1023 590
236 1023 758
231 1023 929
228 1023 1023
550 0 0
550 0 135
550 0 293
549 0 450
549 0 604
549 0 757
549 0 908
548 0 1023
548 0 1023
548 114 0
548 113 119
547 112 274
547 110 427
547 109 577
547 108 726
546 107 874
546 105 1021
546 104 1023
545 252 0
544 251 103
544 250 254
543 249 403
542 247 551
542 246 697
541 245 843
540 244 988
539 242 1023
537 389 0
536 388 88
535 387 238
534 386 386
533 385 534
532 383 680
531 382 826
529 381 972
528 380 1023
526 526 0
525 525 76
524 524 226
523 523 374
522 522 522
521 521 669
520 520 815
519 519 960
518 518 1023
516 663 0
515 663 66
514 662 216
513 661 364
512 660 512
496 663 663
496 660 824
497 658 978
497 656 1023
507 801 0
506 800 56
505 799 206
505 798 354
504 797 501
478 805 639
461 806 806
463 803 970
464 799 1023
501 938 0
500 938 46
500 937 195
500 936 341
499 935 487
468 944 615
441 949 775
427 949 949
425 946 1023
496 1023 0
496 1023 36
496 1023 183
495 1023 328
495 1023 472
462 1023 595
424 1023 745
400 1023 919
395 1023 1023
692 0 0
692 0 130
692 0 287
692 0 442
692 0 595
692 0 747
692 0 897
692 0 1023
692 0 1023
692 110 0
692 109 114
692 108 268
692 107 419
692 105 569
691 104 717
691 103 864
691 102 1010
691 100 1023
690 249 0
690 248 98
689 246 249
689 245 397
688 244 544
687 242 691
686 241 836
685 240 981
684 239 1023
682 386 0
681 385 84
680 383 234
678 382 383
677 381 530
676 380 677
675 379 823
674 378 968
673 377 1023
671 523 0
670 522 73
669 521 223
668 520 371
667 519 519
666 518 666
665 517 812
664 516 958
663 515 1023
661 661 0
660 660 63
659 659 213
658 658 361
657 657 509
656 656 656
655 655 802
655 654 947
654 653 1023
653 798 0
652 797 53
652 796 202
651 796 350
651 795 497
651 794 642
637 796 791
638 793 946
640 791 1023
649 935 0
649 935 43
649 934 191
648 933 337
648 932 482
648 931 626
627 936 763
603 939 932
606 935 1023
646 1023 0
646 1023 33
645 1023 180
645 1023 325
645 1023 468
644 1023 611
619 1023 740
586 1023 900
563 1023 1023
834 0 0
835 0 125
835 0 281
835 0 435
836 0 587
836 0 737
836 0 886
837 0 1023
837 0 1023
837 107 0
837 105 109
837 104 262
837 103 412
837 102 561
837 100 708
837 99 854
836 98 1000
836 97 1023
835 245 0
835 244 94
834 243 244
833 241 392
833 240 539
832 239 686
830 238 831
829 236 977
828 235 1023
826 382 0
825 381 81
824 380 231
822 379 379
821 378 526
820 377 673
819 376 819
818 374 965
817 373 1023
815 520 0
814 519 70
813 518 220
812 517 368
811 516 516
810 515 663
809 514 809
808 513 955
807 512 1023
805 658 0
804 657 60
803 656 210
803 655 358
802 654 506
801 653 652
801 652 798
800 651 943
800 650 1023
799 795 0
799 795 50
799 794 199
799 793 346
798 792 492
798 791 637
798 790 781
798 789 925
798 788 1023
798 933 0
798 932 40
797 931 188
797 930 333
797 929 478
797 928 621
797 927 764
785 929 909
787 926 1023
796 1023 0
796 1023 30
795 1023 177
795 1023 321
794 1023 464
794 1023 607
793 1023 748
776 1023 885
748 1023 1023
978 0 0
979 0 120
979 0 275
980 0 427
980 0 578
981 0 727
981 0 875
982 0 1021
982 0 1023
982 103 0
982 102 105
982 100 256
982 99 406
982 98 554
982 97 700
982 95 846
982 94 991
981 93 1023
980 241 0
979 240 90
978 239 240
977 238 388
976 236 535
975 235 682
974 234 828
973 233 973
971 232 1023
969 379 0
968 378 77
967 377 227
966 376 376
965 374 523
964 373 670
963 372 816
962 371 962
961 370 1023
959 517 0
958 516 67
957 515 217
956 514 365
955 513 513
954 512 660
953 511 806
952 510 952
951 509 1023
949 655 0
949 654 57
948 653 207
948 652 355
947 651 502
947 650 648
947 649 793
947 648 938
947 647 1023
946 793 0
946 792 47
946 791 196
946 790 343
946 789 488
946 788 633
947 787 776
947 786 919
947 785 1023
947 930 0
947 929 37
947 928 184
947 927 330
947 926 473
947 925 616
946 924 759
946 923 900
946 922 1023
945 1023 0
945 1023 28
945 1023 173
944 1023 318
943 1023 461
943 1023 603
942 1023 745
941 1023 886
931 1023 1023
1023 0 0
1023 0 115
1023 0 269
1023 0 420
1023 0 569
1023 0 718
1023 0 864
1023 0 1010
1023 0 1023
1023 99 0
1023 98 100
1023 97 251
1023 95 400
1023 94 547
1023 93 693
1023 92 839
1023 90 984
1023 89 1023
1023 238 0
1023 237 86
1023 235 236
1023 234 384
1023 233 531
1023 232 678
1023 231 824
1023 229 970
1023 228 1023
1023 376 0
1023 375 74
1023 374 224
1023 372 372
1023 371 520
1023 370 667
1023 369 813
1023 368 959
1023 367 1023
1023 514 0
1023 513 64
1023 512 214
1023 511 363
1023 510 510
1023 509 657
1023 508 803
1023 507 949
1023 506 1023
1023 652 0
1023 651 54
1023 650 204
1023 649 352
1023 648 498
1023 647 644
1023 646 789
1023 645 932
1023 645 1023
1023 790 0
1023 789 44
1023 788 192
1023 787 339
1023 786 484
1023 785 628
1023 784 771
1023 783 913
1023 782 1023
1023 927 0
1023 926 34
1023 925 181
1023 924 326
1023 923 469
1023 922 612
1023 921 754
1023 920 895
1023 919 1023
1023 1023 0
1023 1023 25
1023 1023 171
1023 1023 315
1023 1023 458
1023 1023 600
1023 1023 742
1023 1023 883
1023 1023 1023
