games/surveyor/assets/luts/home.3dl
0 64 128 192 256 320 384 448 512 575 639 703 767 831 895 959 1023
0 0 0
0 0 69
0 0 151
0 0 232
0 0 313
0 0 393
0 0 473
0 0 553
0 0 632
0 0 711
0 0 789
0 0 867
0 0 945
0 0 1023
0 0 1023
0 0 1023
0 0 1023
0 57 0
0 59 62
0 57 151
0 56 242
0 55 332
0 53 418
0 53 497
0 52 574
0 52 649
0 51 725
0 51 800
0 50 875
0 50 950
0 49 1023
0 49 1023
0 48 1023
0 48 1023
0 128 0
0 134 46
0 132 135
0 131 223
0 129 311
0 127 398
0 126 487
0 124 574
0 123 661
0 122 747
0 121 831
0 120 911
0 119 988
0 118 1023
0 117 1023
0 116 1023
0 116 1023
0 198 0
0 206 33
0 206 119
0 204 207
0 203 295
0 201 381
0 200 468
0 198 554
0 196 641
0 195 726
0 193 811
0 192 895
0 190 978
0 189 1023
0 188 1023
0 186 1023
0 185 1023
0 267 0
0 277 23
0 279 103
0 277 191
0 276 278
0 274 365
0 272 452
0 271 538
0 269 624
0 268 710
0 266 795
0 264 879
0 263 962
0 261 1023
0 259 1023
0 258 1023
0 257 1023
0 336 0
0 346 13
0 351 87
0 350 174
0 348 262
0 347 348
0 345 435
0 343 521
0 342 607
0 340 693
0 338 779
0 337 864
0 335 949
0 333 1023
0 332 1023
0 330 1023
0 328 1023
0 404 0
0 412 9
0 421 74
0 422 158
0 420 245
0 419 332
0 417 418
0 415 505
0 414 591
0 412 676
0 410 762
0 409 848
0 407 933
0 406 1018
0 404 1023
0 402 1023
0 401 1023
0 472 0
0 479 5
0 490 62
0 494 141
0 492 229
0 490 315
0 489 402
0 487 488
0 486 574
0 484 660
0 482 746
0 481 831
0 479 916
0 478 1002
0 476 1023
0 474 1023
0 473 1023
0 540 0
0 545 1
0 559 51
0 564 127
0 564 212
0 562 299
0 561 386
0 559 472
0 557 558
0 556 644
0 554 729
0 553 815
0 551 900
0 549 985
0 548 1023
0 546 1023
0 545 1023
0 608 0
0 612 0
0 629 41
0 634 114
0 636 196
0 634 283
0 632 370
0 631 456
0 629 542
0 628 628
0 626 714
0 625 799
0 623 884
0 621 970
0 620 1023
0 618 1023
0 617 1023
0 676 0
0 679 0
0 697 32
0 703 103
0 707 181
0 706 268
0 704 354
0 703 441
0 701 527
0 700 613
0 698 698
0 697 784
0 695 869
0 694 954
0 692 1023
0 691 1023
0 689 1023
0 744 0
0 747 0
0 765 27
0 773 93
0 777 168
0 778 252
0 776 339
0 775 425
0 773 512
0 772 598
0 770 683
0 769 769
0 768 854
0 766 940
0 765 1023
0 763 1023
0 762 1023
0 812 0
0 815 0
0 832 22
0 842 83
0 848 157
0 850 238
0 849 325
0 847 411
0 846 497
0 844 583
0 843 669
0 842 755
0 840 840
0 839 925
0 837 1011
0 836 1023
0 834 1023
0 881 0
0 883 0
0 900 19
0 913 74
0 918 147
0 922 225
0 921 310
0 920 397
0 918 483
0 917 569
0 915 655
0 914 740
0 913 826
0 911 911
0 910 996
0 908 1023
0 907 1023
0 949 0
0 951 0
0 968 16
0 982 65
0 988 137
0 992 213
0 994 296
0 992 382
0 991 469
0 989 555
0 988 640
0 986 726
0 985 811
0 983 897
0 982 982
0 981 1023
0 979 1023
0 1018 0
0 1019 0
0 1023 14
0 1023 57
0 1023 128
0 1023 202
0 1023 282
0 1023 368
0 1023 454
0 1023 540
0 1023 626
0 1023 712
0 1023 797
0 1023 883
0 1023 968
0 1023 1023
0 1023 1023
0 1023 0
0 1023 0
0 1023 11
0 1023 50
0 1023 118
0 1023 191
0 1023 270
0 1023 354
0 1023 440
0 1023 526
0 1023 612
0 1023 697
0 1023 783
0 1023 868
0 1023 953
0 1023 1023
0 1023 1023
56 0 0
55 0 68
55 0 150
54 0 231
54 0 311
53 0 392
53 0 471
52 0 551
52 0 630
52 0 708
51 0 787
51 0 865
50 0 942
50 0 1020
49 0 1023
49 0 1023
48 0 1023
52 56 0
51 55 63
51 55 144
50 54 225
50 54 305
49 53 385
49 53 464
48 52 542
48 51 621
47 51 699
47 50 776
46 50 853
46 49 930
45 48 1007
45 48 1023
44 47 1023
44 47 1023
47 127 0
46 126 56
36 129 132
35 127 220
35 125 311
35 124 399
35 123 485
35 122 565
36 121 642
36 120 717
36 119 792
36 119 865
36 118 939
36 118 1012
36 117 1023
36 117 1023
36 116 1023
41 197 0
41 196 48
21 202 116
19 201 203
18 199 291
16 197 378
16 196 465
16 194 551
16 192 637
16 191 721
16 190 805
16 189 887
16 187 966
17 186 1023
17 185 1023
18 185 1023
18 184 1023
36 266 0
35 265 41
10 274 103
3 274 187
2 272 274
0 270 361
0 269 448
0 267 534
0 266 620
0 264 705
0 262 789
0 260 871
0 259 953
0 258 1023
0 256 1023
0 255 1023
0 254 1023
30 334 0
30 334 34
0 344 91
0 346 170
0 345 258
0 343 345
0 341 431
0 340 518
0 338 604
0 336 689
0 335 775
0 333 859
0 331 942
0 330 1023
0 328 1023
0 326 1023
0 325 1023
24 403 0
24 402 26
0 413 79
0 418 155
0 417 241
0 415 328
0 413 415
0 412 501
0 410 587
0 409 673
0 407 758
0 405 844
0 404 929
0 402 1014
0 400 1023
0 399 1023
0 397 1023
18 471 0
18 470 19
0 482 71
0 488 142
0 489 225
0 487 312
0 485 398
0 484 485
0 482 571
0 481 657
0 479 742
0 477 828
0 476 913
0 474 998
0 473 1023
0 471 1023
0 469 1023
12 539 0
12 538 13
0 549 65
0 557 129
0 560 209
0 559 296
0 557 382
0 556 469
0 554 555
0 553 641
0 551 726
0 549 812
0 548 897
0 546 982
0 545 1023
0 543 1023
0 542 1023
6 607 0
6 606 7
0 616 60
0 627 118
0 631 195
0 631 280
0 629 367
0 628 453
0 626 539
0 625 625
0 623 710
0 621 796
0 620 881
0 618 967
0 617 1023
0 615 1023
0 614 1023
1 675 0
0 674 1
0 683 55
0 696 108
0 701 182
0 703 264
0 701 351
0 700 437
0 698 524
0 697 610
0 695 695
0 694 781
0 692 866
0 691 952
0 689 1023
0 688 1023
0 686 1023
0 743 0
0 742 0
0 751 52
0 766 98
0 771 171
0 774 250
0 774 336
0 772 423
0 771 509
0 769 595
0 768 681
0 766 766
0 765 852
0 763 937
0 762 1022
0 760 1023
0 759 1023
0 811 0
0 811 0
0 819 48
0 836 90
0 841 161
0 846 238
0 846 322
0 845 408
0 843 494
0 842 580
0 840 666
0 839 752
0 837 837
0 836 923
0 834 1008
0 833 1023
0 832 1023
0 880 0
0 880 0
0 886 45
0 904 85
0 911 152
0 916 227
0 918 308
0 917 394
0 916 480
0 914 566
0 913 652
0 911 738
0 910 823
0 908 908
0 907 994
0 905 1023
0 904 1023
0 949 0
0 948 0
0 954 41
0 972 80
0 981 142
0 986 216
0 990 295
0 989 380
0 988 466
0 986 552
0 985 638
0 984 723
0 982 809
0 981 894
0 979 979
0 978 1023
0 976 1023
0 1017 0
0 1017 0
0 1022 38
0 1023 75
0 1023 133
0 1023 206
0 1023 283
0 1023 365
0 1023 452
0 1023 538
0 1023 623
0 1023 709
0 1023 794
0 1023 880
0 1023 965
0 1023 1023
0 1023 1023
0 1023 0
0 1023 0
0 1023 34
0 1023 72
0 1023 123
0 1023 196
0 1023 271
0 1023 352
0 1023 437
0 1023 523
0 1023 609
0 1023 695
0 1023 780
0 1023 866
0 1023 951
0 1023 1023
0 1023 1023
127 0 0
127 0 66
126 0 148
126 0 229
125 0 309
125 0 389
124 0 469
124 0 548
124 0 627
123 0 705
123 0 783
122 0 861
122 0 938
121 0 1015
121 0 1023
120 0 1023
120 0 1023
123 54 0
123 54 61
123 53 142
122 53 223
122 52 302
121 51 382
121 51 461
120 50 539
120 50 617
119 49 695
119 48 772
118 48 849
118 47 925
117 47 1002
117 46 1023
116 45 1023
116 45 1023
119 125 0
118 124 54
118 124 134
117 123 214
117 123 293
116 122 371
116 121 449
115 121 526
115 120 603
114 120 680
114 119 756
113 118 832
113 118 907
113 117 982
112 117 1023
112 116 1023
111 115 1023
114 195 0
113 194 46
113 194 126
105 196 199
104 194 289
103 192 376
103 191 461
103 190 541
104 189 617
104 188 692
104 187 765
104 187 838
104 186 911
104 186 983
104 185 1023
104 184 1023
104 184 1023
109 264 0
109 263 39
108 263 117
92 268 186
87 267 269
86 266 356
85 264 443
85 262 528
85 260 612
85 259 695
85 257 776
85 256 857
85 255 935
85 254 1010
86 253 1023
87 252 1023
87 251 1023
104 332 0
103 332 31
103 331 109
81 338 172
72 340 253
70 338 340
68 336 426
67 335 513
65 333 598
65 331 682
66 330 765
66 328 846
67 326 926
67 325 1006
67 324 1023
66 322 1023
66 321 1023
98 401 0
98 400 24
97 399 101
71 408 160
57 411 237
54 410 323
52 409 410
51 407 496
49 405 582
48 404 668
46 402 753
46 400 838
46 399 920
46 397 1000
47 395 1023
47 394 1023
47 392 1023
93 469 0
92 468 17
92 468 94
65 477 150
46 482 223
38 482 307
37 481 393
35 479 480
34 477 566
32 476 652
30 474 737
29 473 823
27 471 908
26 469 993
26 468 1023
26 466 1023
27 464 1023
87 537 0
87 536 11
86 536 87
60 545 142
36 552 210
23 554 291
21 552 377
20 551 464
18 549 550
17 548 636
15 546 721
13 545 807
12 543 892
10 542 977
9 540 1023
7 538 1023
7 537 1023
81 605 0
81 604 5
80 604 81
56 612 137
26 621 199
11 625 277
6 624 362
4 623 448
3 621 534
1 620 620
0 618 706
0 617 791
0 615 877
0 614 962
0 612 1023
0 611 1023
0 609 1023
76 673 0
75 672 0
75 672 75
52 680 132
17 691 188
1 695 264
0 697 346
0 695 433
0 694 519
0 692 605
0 691 691
0 689 776
0 688 862
0 686 947
0 685 1023
0 683 1023
0 682 1023
70 741 0
70 741 0
70 740 70
49 747 128
8 761 178
0 766 253
0 768 332
0 768 418
0 766 504
0 765 590
0 763 676
0 762 762
0 760 847
0 759 933
0 757 1018
0 756 1023
0 755 1023
65 810 0
65 810 0
65 809 65
46 816 124
2 831 170
0 836 242
0 840 320
0 840 404
0 839 490
0 837 576
0 836 662
0 834 747
0 833 833
0 831 918
0 830 1003
0 829 1023
0 827 1023
61 878 0
60 878 0
60 878 60
42 884 120
0 900 164
0 906 232
0 910 308
0 912 390
0 911 476
0 910 562
0 908 647
0 907 733
0 905 819
0 904 904
0 902 989
0 901 1023
0 900 1023
56 947 0
56 947 0
55 946 55
39 952 117
0 968 158
0 976 222
0 981 297
0 984 377
0 983 461
0 982 547
0 981 633
0 979 719
0 978 804
0 976 890
0 975 975
0 973 1023
0 972 1023
51 1015 0
51 1015 0
51 1015 50
36 1020 112
0 1023 153
0 1023 212
0 1023 286
0 1023 364
0 1023 447
0 1023 533
0 1023 619
0 1023 705
0 1023 790
0 1023 875
0 1023 961
0 1023 1023
0 1023 1023
47 1023 0
47 1023 0
46 1023 45
33 1023 108
0 1023 149
0 1023 202
0 1023 275
0 1023 352
0 1023 433
0 1023 519
0 1023 605
0 1023 690
0 1023 776
0 1023 861
0 1023 946
0 1023 1023
0 1023 1023
198 0 0
198 0 64
197 0 146
197 0 227
196 0 307
196 0 387
195 0 466
195 0 545
195 0 623
194 0 701
194 0 779
193 0 857
193 0 934
193 0 1010
192 0 1023
192 0 1023
191 0 1023
194 52 0
194 52 59
194 51 140
193 51 220
193 50 300
192 50 379
192 49 457
192 48 535
191 48 613
191 47 690
190 47 767
190 46 844
189 45 920
189 45 996
189 44 1023
188 44 1023
