games/surveyor/assets/luts/home.3dl
0 256 512 767 1023
0 0 0
0 0 313
0 0 632
0 0 945
0 0 1023
0 267 0
0 276 278
0 269 624
0 263 962
0 257 1023
0 540 0
0 564 212
0 557 558
0 551 900
0 545 1023
0 812 0
0 848 157
0 846 497
0 840 840
0 834 1023
0 1023 0
0 1023 118
0 1023 440
0 1023 783
0 1023 1023
268 0 0
267 0 304
265 0 620
264 0 929
263 0 1023
254 260 0
253 258 266
251 255 566
249 252 860
248 250 1023
235 533 0
232 531 233
187 540 540
184 533 879
186 527 1023
214 807 0
212 805 212
134 828 483
123 824 824
117 818 1023
197 1023 0
196 1023 190
97 1023 434
66 1023 767
60 1023 1023
550 0 0
550 0 293
549 0 604
549 0 908
548 0 1023
545 252 0
544 250 254
542 247 551
541 245 843
539 242 1023
526 526 0
524 524 226
522 522 522
520 520 815
518 518 1023
507 801 0
505 799 206
504 797 501
461 806 806
464 799 1023
496 1023 0
496 1023 183
495 1023 472
424 1023 745
395 1023 1023
834 0 0
835 0 281
836 0 587
836 0 886
837 0 1023
835 245 0
834 243 244
833 240 539
830 238 831
828 235 1023
815 520 0
813 518 220
811 516 516
809 514 809
807 512 1023
799 795 0
799 794 199
798 792 492
798 790 781
798 788 1023
796 1023 0
795 1023 177
794 1023 464
793 1023 748
748 1023 1023
1023 0 0
1023 0 269
1023 0 569
1023 0 864
1023 0 1023
1023 238 0
1023 235 236
1023 233 531
1023 231 824
1023 228 1023
1023 514 0
1023 512 214
1023 510 510
1023 508 803
1023 506 1023
1023 790 0
1023 788 192
1023 786 484
1023 784 771
1023 782 1023
1023 1023 0
1023 1023 171
1023 1023 458
1023 1023 742
1023 1023 1023
