games/surveyor/assets/luts/shroud.3dl
0 64 128 192 256 320 384 448 512 575 639 703 767 831 895 959 1023
0 0 1
0 0 65
0 0 134
1 0 206
1 1 279
1 1 353
1 1 427
1 1 503
2 1 579
2 1 655
2 2 732
2 2 809
2 2 886
3 2 964
3 2 1023
3 3 1023
3 3 1023
2 44 2
0 54 61
0 52 139
0 49 231
0 45 328
0 44 417
0 43 492
0 43 561
0 43 629
0 44 698
0 44 768
0 44 839
0 45 910
1 45 982
2 45 1023
2 45 1023
3 46 1023
3 98 4
0 119 47
0 118 125
0 116 205
0 115 288
0 112 375
0 108 472
0 104 571
0 101 670
0 99 767
0 98 855
0 97 935
0 96 1009
0 96 1023
0 96 1023
0 96 1023
0 96 1023
5 154 6
0 181 35
0 185 110
0 184 190
0 182 272
0 181 355
0 179 440
0 177 526
0 173 619
0 169 716
0 166 813
0 163 910
0 160 1007
0 158 1023
0 156 1023
0 155 1023
0 154 1023
7 213 8
0 237 24
0 254 94
0 252 174
0 251 256
0 249 339
0 247 424
0 246 509
0 244 595
0 243 681
0 240 772
0 236 865
0 232 959
0 229 1023
0 226 1023
0 224 1023
0 222 1023
9 276 10
0 297 16
0 321 78
0 322 158
0 320 240
0 318 323
0 317 407
0 315 492
0 314 578
0 312 665
0 310 752
0 309 839
0 306 928
0 303 1019
0 300 1023
0 297 1023
0 295 1023
11 341 11
0 359 19
0 384 66
0 392 141
0 390 223
0 389 306
0 387 390
0 385 475
0 384 561
0 382 648
0 380 735
0 379 822
0 377 911
0 375 999
0 374 1023
0 371 1023
0 369 1023
13 409 13
0 423 25
0 450 55
0 462 124
0 461 206
0 459 289
0 458 374
0 456 459
0 455 545
0 453 631
0 451 718
0 450 806
0 448 894
0 446 982
0 445 1023
0 443 1023
0 441 1023
14 479 15
0 491 31
0 520 43
0 531 110
0 533 189
0 531 273
0 529 357
0 528 442
0 526 528
0 525 614
0 523 701
0 521 789
0 520 877
0 518 966
0 517 1023
0 515 1023
0 513 1023
16 550 16
0 559 36
0 592 33
0 601 98
0 605 173
0 603 256
0 602 340
0 600 425
0 599 511
0 597 598
0 596 685
0 594 773
0 592 861
0 591 950
0 589 1023
0 588 1023
0 586 1023
18 621 18
1 628 41
0 663 30
0 672 86
0 677 158
0 677 240
0 675 324
0 674 409
0 672 495
0 670 582
0 669 669
0 667 757
0 666 845
0 664 934
0 663 1023
0 661 1023
0 660 1023
20 690 20
7 695 45
0 729 33
0 744 76
0 749 145
0 751 224
0 749 308
0 748 394
0 746 480
0 745 567
0 743 654
0 742 742
0 740 830
0 739 919
0 737 1008
0 736 1023
0 734 1023
22 758 22
11 762 49
0 795 37
0 816 66
0 821 134
0 825 210
0 824 293
0 823 379
0 821 465
0 820 552
0 818 639
0 817 727
0 815 815
0 814 904
0 812 993
0 811 1023
0 809 1023
24 826 24
15 830 53
0 861 43
0 889 57
0 894 124
0 899 197
0 899 279
0 898 364
0 896 450
0 895 537
0 894 624
0 892 712
0 891 800
0 889 889
0 888 978
0 886 1023
0 884 1023
26 895 26
19 897 56
0 927 49
0 960 51
0 967 115
0 972 186
0 975 264
0 974 349
0 972 435
0 971 522
0 969 609
0 968 697
0 966 785
0 965 874
0 963 963
0 962 1023
0 960 1023
28 961 28
22 963 60
0 991 56
0 1023 49
0 1023 106
0 1023 175
0 1023 251
0 1023 334
0 1023 420
0 1023 507
0 1023 594
0 1023 682
0 1023 770
0 1023 859
0 1023 948
0 1023 1023
0 1023 1023
30 1023 30
25 1023 63
0 1023 62
0 1023 50
0 1023 97
0 1023 166
0 1023 239
0 1023 319
0 1023 405
0 1023 492
0 1023 579
0 1023 667
0 1023 755
0 1023 844
0 1023 933
0 1023 1023
0 1023 1023
55 0 1
55 1 65
56 1 134
56 1 206
56 1 279
56 1 353
56 1 427
56 2 502
56 2 578
57 2 654
57 2 731
57 2 807
57 2 884
57 3 961
57 3 1023
57 3 1023
57 3 1023
56 45 2
56 45 66
56 45 135
57 45 206
57 45 278
57 45 351
57 45 425
57 45 499
57 46 574
57 46 649
57 46 725
57 46 800
57 46 876
57 46 952
57 47 1023
57 47 1023
57 47 1023
57 98 4
57 98 66
38 114 121
38 110 207
39 104 303
39 101 399
41 99 483
44 98 558
46 98 629
48 98 698
49 98 767
50 98 836
51 99 905
52 99 975
53 99 1023
54 100 1023
54 100 1023
57 155 6
57 155 65
24 180 107
22 180 186
20 179 268
19 177 352
19 172 444
20 167 540
20 163 636
20 160 732
20 158 826
21 157 912
23 155 991
26 155 1023
28 154 1023
31 154 1023
33 155 1023
57 214 8
57 214 64
13 239 98
6 249 170
5 247 252
3 246 336
1 244 420
0 242 505
0 240 593
0 235 686
0 232 780
0 228 873
0 225 967
0 223 1023
0 221 1023
0 219 1023
1 218 1023
57 277 10
57 277 62
3 301 86
0 318 154
0 317 236
0 315 319
0 313 403
0 312 489
0 310 574
0 309 661
0 307 748
0 304 838
0 300 929
0 297 1020
0 294 1023
0 292 1023
0 290 1023
56 342 12
56 343 60
0 366 76
0 385 140
0 387 219
0 385 303
0 384 387
0 382 472
0 380 558
0 379 644
0 377 731
0 376 819
0 374 907
0 372 996
0 369 1023
0 366 1023
0 364 1023
56 410 13
56 411 59
0 433 72
0 451 127
0 458 203
0 456 286
0 455 370
0 453 455
0 451 541
0 450 628
0 448 715
0 447 802
0 445 891
0 443 979
0 442 1023
0 440 1023
0 438 1023
56 480 15
56 481 57
1 502 72
0 521 114
0 529 187
0 528 269
0 526 354
0 525 439
0 523 525
0 522 611
0 520 698
0 519 786
0 517 874
0 515 963
0 514 1023
0 512 1023
0 510 1023
56 551 17
56 552 56
7 571 74
0 593 102
0 600 172
0 601 253
0 599 337
0 597 422
0 596 508
0 594 595
0 593 682
0 591 770
0 590 858
0 588 947
0 587 1023
0 585 1023
0 583 1023
56 622 18
56 622 56
12 639 78
0 667 91
0 671 160
0 674 237
0 672 321
0 671 407
0 669 493
0 668 579
0 666 666
0 665 754
0 663 843
0 662 931
0 660 1020
0 659 1023
0 657 1023
57 690 20
57 690 57
18 705 82
0 737 83
0 743 149
0 747 223
0 747 306
0 745 391
0 744 477
0 742 564
0 741 651
0 739 739
0 738 828
0 736 916
0 735 1006
0 733 1023
0 732 1023
59 758 22
59 758 59
24 772 87
0 806 81
0 816 139
0 820 211
0 822 291
0 820 376
0 819 462
0 817 549
0 816 637
0 814 724
0 813 813
0 811 901
0 810 991
0 808 1023
0 807 1023
61 827 24
61 827 61
30 839 92
0 874 82
0 888 129
0 893 200
0 896 277
0 895 361
0 894 448
0 893 534
0 891 622
0 890 709
0 888 798
0 887 887
0 885 976
0 884 1023
0 882 1023
63 895 26
63 895 63
35 906 97
0 941 86
0 961 120
0 966 189
0 970 264
0 971 346
0 970 433
0 968 519
0 967 607
0 965 695
0 964 783
0 962 872
0 961 961
0 959 1023
0 958 1023
65 961 28
65 961 66
41 970 102
0 1004 91
0 1023 111
0 1023 180
0 1023 253
0 1023 332
0 1023 418
0 1023 504
0 1023 592
0 1023 679
0 1023 768
0 1023 857
0 1023 946
0 1023 1023
0 1023 1023
67 1023 31
68 1023 68
45 1023 108
0 1023 97
0 1023 106
0 1023 171
0 1023 242
0 1023 319
0 1023 402
0 1023 489
0 1023 577
0 1023 664
0 1023 753
0 1023 841
0 1023 931
0 1023 1020
0 1023 1023
118 1 2
118 1 66
118 1 135
118 1 206
118 1 279
119 2 352
119 2 427
119 2 502
119 2 577
119 2 653
119 3 729
119 3 805
119 3 882
119 3 959
119 3 1023
119 3 1023
119 4 1023
119 45 3
119 45 66
119 45 135
119 45 205
119 45 277
119 46 350
119 46 424
119 46 498
119 46 572
119 46 647
119 46 722
119 46 797
119 47 873
119 47 948
119 47 1023
119 47 1023
119 47 1023
119 99 5
119 99 66
119 99 133
119 99 203
119 99 274
119 99 346
119 100 418
119 100 491
119 100 564
119 100 637
119 101 711
119 101 785
118 101 859
118 101 932
118 102 1006
118 102 1023
118 102 1023
119 155 7
118 156 65
118 156 131
98 173 185
100 166 279
101 161 373
102 158 460
104 157 537
106 156 609
108 156 678
110 156 747
111 157 815
112 157 883
112 158 951
113 158 1020
113 158 1023
114 159 1023
118 215 9
118 215 63
118 216 128
86 236 175
80 243 248
78 241 331
78 237 420
79 232 513
80 227 606
80 224 698
80 222 789
80 220 875
82 219 954
85 218 1023
87 217 1023
89 217 1023
92 217 1023
117 278 10
117 278 62
117 279 125
75 298 163
64 312 231
62 311 315
60 309 399
59 307 484
58 305 571
58 301 660
59 298 751
59 294 841
59 292 930
59 289 1019
59 288 1023
59 286 1023
59 285 1023
116 344 12
116 344 60
116 345 122
65 365 150
49 380 217
46 381 298
44 379 382
43 378 467
41 376 553
39 374 640
38 373 727
37 370 815
38 367 903
38 365 991
39 362 1023
39 360 1023
39 358 1023
115 412 14
115 412 58
115 413 119
63 433 142
38 448 203
30 452 281
28 450 366
27 449 451
25 447 537
23 446 623
22 444 710
20 442 798
18 441 886
17 439 974
17 437 1023
18 434 1023
18 432 1023
115 482 15
115 482 57
115 483 117
65 502 139
27 518 190
14 523 265
12 522 349
10 521 434
9 519 520
7 518 607
6 516 694
4 514 782
2 513 870
1 511 958
0 510 1023
0 508 1023
0 506 1023
115 553 17
115 553 56
115 553 115
69 571 139
17 590 177
2 595 250
0 595 333
0 593 418
0 592 504
0 590 591
0 589 678
0 587 766
0 586 854
0 584 943
0 582 1023
0 581 1023
0 579 1023
115 622 19
115 623 57
115 623 115
73 639 141
7 663 165
0 667 237
0 668 317
0 667 402
0 665 488
0 664 575
0 662 662
0 661 750
0 659 838
0 658 927
0 656 1016
0 655 1023
0 653 1023
116 690 21
116 690 58
117 690 117
79 705 145
0 734 156
0 739 226
0 742 303
0 741 387
0 740 473
0 738 560
0 737 647
0 735 735
0 734 824
0 732 912
0 731 1002
0 729 1023
0 728 1023
118 758 23
118 759 60
118 759 118
84 772 149
0 804 152
0 811 215
0 815 290
0 816 372
0 815 459
0 813 545
0 812 633
0 810 720
0 809 809
0 807 898
0 806 987
0 804 1023
0 803 1023
120 827 25
120 827 62
120 827 120
89 839 154
1 872 152
0 884 206
0 889 279
0 891 358
0 890 444
0 889 530
0 887 618
0 886 706
0 884 794
0 883 883
0 881 972
0 880 1023
0 878 1023
122 895 27
122 895 64
123 895 123
95 905 159
5 939 154
0 956 196
0 961 268
0 965 345
0 966 429
0 964 515
0 963 603
0 961 691
0 960 779
0 958 868
0 957 957
0 955 1023
0 954 1023
125 961 29
125 960 66
125 960 126
100 970 164
12 1002 159
0 1023 188
0 1023 259
0 1023 333
0 1023 414
0 1023 500
0 1023 588
0 1023 676
0 1023 764
0 1023 853
0 1023 942
0 1023 1023
0 1023 1023
127 1023 31
127 1023 69
127 1023 129
105 1023 170
19 1023 165
0 1023 181
0 1023 250
0 1023 323
0 1023 400
0 1023 485
0 1023 573
0 1023 660
0 1023 749
0 1023 838
0 1023 927
0 1023 1016
0 1023 1023
182 1 2
182 1 66
183 2 135
183 2 206
183 2 278
183 2 352
183 2 426
183 2 501
183 3 576
183 3 651
183 3 727
183 3 803
183 3 879
183 4 955
183 4 1023
183 4 1023
183 4 1023
183 45 3
183 45 66
183 46 134
183 46 205
183 46 276
183 46 349
183 46 422
183 46 496
183 46 570
183 47 644
182 47 719
182 47 794
182 47 869
182 47 944
182 47 1019
182 47 1023
