games/surveyor/assets/luts/shroud.3dl
0 128 256 384 512 639 767 895 1023
0 0 1
0 0 134
1 1 279
1 1 427
2 1 579
2 2 732
2 2 886
3 2 1023
3 3 1023
3 98 4
0 118 125
0 115 288
0 108 472
0 101 670
0 98 855
0 96 1009
0 96 1023
0 96 1023
7 213 8
0 254 94
0 251 256
0 247 424
0 244 595
0 240 772
0 232 959
0 226 1023
0 222 1023
11 341 11
0 384 66
0 390 223
0 387 390
0 384 561
0 380 735
0 377 911
0 374 1023
0 369 1023
14 479 15
0 520 43
0 533 189
0 529 357
0 526 528
0 523 701
0 520 877
0 517 1023
0 513 1023
18 621 18
0 663 30
0 677 158
0 675 324
0 672 495
0 669 669
0 666 845
0 663 1023
0 660 1023
22 758 22
0 795 37
0 821 134
0 824 293
0 821 465
0 818 639
0 815 815
0 812 993
0 809 1023
26 895 26
0 927 49
0 967 115
0 975 264
0 972 435
0 969 609
0 966 785
0 963 963
0 960 1023
30 1023 30
0 1023 62
0 1023 97
0 1023 239
0 1023 405
0 1023 579
0 1023 755
0 1023 933
0 1023 1023
118 1 2
118 1 135
118 1 279
119 2 427
119 2 577
119 3 729
119 3 882
119 3 1023
119 4 1023
119 99 5
119 99 133
119 99 274
119 100 418
119 100 564
119 101 711
118 101 859
118 102 1006
118 102 1023
118 215 9
118 216 128
80 243 248
78 237 420
80 227 606
80 222 789
82 219 954
87 217 1023
92 217 1023
116 344 12
116 345 122
49 380 217
44 379 382
41 376 553
38 373 727
38 367 903
39 362 1023
39 358 1023
115 482 15
115 483 117
27 518 190
12 522 349
9 519 520
6 516 694
2 513 870
0 510 1023
0 506 1023
115 622 19
115 623 115
7 663 165
0 668 317
0 665 488
0 662 662
0 659 838
0 656 1016
0 653 1023
118 758 23
118 759 118
0 804 152
0 815 290
0 815 459
0 812 633
0 809 809
0 806 987
0 803 1023
122 895 27
123 895 123
5 939 154
0 961 268
0 966 429
0 963 603
0 960 779
0 957 957
0 954 1023
127 1023 31
127 1023 129
19 1023 165
0 1023 250
0 1023 400
0 1023 573
0 1023 749
0 1023 927
0 1023 1023
248 2 3
248 2 135
248 2 278
248 3 425
248 3 574
248 3 724
248 4 875
248 4 1023
248 5 1023
247 100 6
247 100 132
247 100 271
246 101 414
246 101 558
246 102 703
245 102 849
245 103 994
245 103 1023
244 218 10
244 218 127
243 219 260
243 220 396
242 221 534
242 222 673
242 222 812
241 223 951
241 224 1023
240 347 13
240 348 120
239 349 248
202 369 374
203 362 548
203 357 719
204 354 880
208 353 1023
212 353 1023
237 486 16
237 486 116
237 487 239
176 510 344
166 510 511
162 507 685
162 504 858
163 500 1023
163 497 1023
238 624 20
238 624 116
238 624 238
155 654 318
135 657 480
132 654 654
129 651 830
126 648 1008
124 645 1023
242 759 24
242 760 120
242 760 242
142 797 301
110 805 452
102 804 625
99 801 801
96 798 979
93 795 1023
246 894 28
246 894 124
247 894 248
143 932 299
89 951 429
72 955 595
69 952 771
66 949 949
63 946 1023
252 1023 33
252 1022 131
253 1022 257
153 1023 308
71 1023 412
44 1023 566
39 1023 741
36 1023 919
33 1023 1023
381 3 4
381 3 135
381 3 276
381 4 422
380 4 569
380 5 718
380 5 867
379 5 1016
379 6 1023
378 101 7
378 101 131
377 102 268
377 102 409
376 103 551
376 103 694
375 104 838
374 104 981
374 105 1023
373 220 11
372 221 125
372 221 256
371 222 391
370 223 527
370 224 664
369 225 801
369 226 938
368 227 1023
367 351 14
367 352 119
366 353 245
366 354 374
365 355 505
365 356 637
364 357 769
364 358 903
364 359 1023
364 489 17
363 489 115
363 490 238
363 491 364
331 500 501
331 497 667
331 495 829
335 492 978
339 491 1023
365 624 21
365 625 117
366 625 239
366 625 366
309 645 476
294 646 646
293 642 820
294 639 992
295 636 1023
369 761 25
369 761 121
370 761 243
370 761 370
292 789 456
268 794 617
262 792 792
259 789 970
256 786 1023
374 893 29
375 893 126
375 893 251
376 892 380
289 924 453
246 940 594
232 943 762
229 940 940
226 937 1023
381 1021 34
381 1020 133
382 1020 260
382 1019 392
295 1023 460
227 1023 578
203 1023 733
199 1023 910
196 1023 1023
516 4 5
516 4 134
515 5 274
515 5 418
514 5 564
514 6 710
513 6 857
512 6 1004
511 7 1023
511 102 8
510 103 129
509 103 265
508 103 403
508 104 544
507 104 685
506 105 826
505 105 967
504 106 1023
503 223 12
502 223 123
501 224 253
501 225 385
500 226 519
499 227 655
498 227 790
498 228 926
497 229 1023
496 354 15
495 355 117
495 356 242
494 357 370
494 358 500
493 359 631
493 359 763
493 360 896
492 361 1023
492 491 18
492 491 115
492 492 238
492 492 364
493 493 493
493 493 624
493 493 756
494 494 890
494 494 1023
495 625 22
495 626 118
495 626 240
496 627 367
496 627 496
466 636 636
466 633 801
469 630 957
473 628 1023
499 761 26
499 761 122
500 761 245
500 761 372
501 761 503
447 779 616
429 783 784
430 778 960
432 774 1023
505 892 31
506 892 128
507 891 253
507 891 383
508 890 516
441 914 612
407 929 761
395 932 932
392 928 1023
513 1019 35
514 1018 135
514 1018 263
515 1017 395
516 1016 531
443 1023 618
387 1023 747
365 1023 903
362 1023 1023
652 5 6
651 5 133
650 6 271
649 6 413
649 6 557
648 7 701
647 7 846
646 7 991
645 8 1023
644 104 9
643 104 127
642 104 261
641 105 398
640 105 536
639 106 675
638 106 814
637 107 954
636 107 1023
634 225 13
633 226 121
632 227 249
631 227 380
630 228 512
629 229 646
628 230 780
628 231 915
627 231 1023
626 357 16
625 358 116
625 359 240
624 359 367
624 360 496
623 361 626
623 362 758
623 362 891
623 363 1023
623 492 19
623 493 116
624 493 238
624 493 364
624 494 494
625 494 625
625 494 757
625 495 891
626 495 1023
627 627 23
627 627 119
627 627 242
628 628 368
628 628 497
629 628 629
629 629 762
630 629 896
630 629 1023
632 761 27
632 761 124
633 761 247
633 761 375
634 761 506
635 760 640
606 769 781
609 764 948
614 761 1023
639 891 32
640 890 130
641 890 256
641 889 386
642 889 520
643 888 657
596 904 777
570 917 931
572 910 1023
648 1017 37
648 1016 137
649 1016 265
650 1015 399
651 1015 535
651 1014 673
595 1023 781
550 1023 918
530 1023 1023
788 6 7
786 6 131
785 7 268
784 7 408
783 7 550
782 8 692
780 8 834
779 9 977
778 9 1023
777 105 11
776 105 125
775 106 257
773 106 392
772 107 528
771 107 665
770 108 803
768 108 940
767 109 1023
765 228 14
764 228 119
763 229 246
762 230 375
761 230 506
760 231 638
760 232 771
759 233 905
758 233 1023
757 360 17
756 360 115
756 361 238
756 362 365
756 362 493
755 363 624
755 363 756
756 364 889
756 364 1023
756 493 21
757 494 116
757 494 239
757 494 365
758 495 495
758 495 626
758 495 758
759 496 892
759 496 1023
760 628 24
760 628 120
761 628 243
761 629 370
762 629 499
762 629 631
763 629 765
764 629 900
764 629 1023
766 761 29
767 761 125
768 760 250
768 760 378
769 760 510
770 759 644
771 759 781
772 759 919
773 758 1023
775 889 33
776 889 132
777 888 259
778 887 390
779 887 525
780 886 662
781 886 801
756 893 947
760 889 1023
785 1015 38
785 1015 139
786 1014 268
787 1014 402
788 1014 538
788 1013 677
789 1013 818
750 1023 946
715 1023 1023
923 7 9
922 8 129
920 8 264
919 8 402
917 9 542
916 9 682
914 9 822
912 10 963
911 10 1023
910 107 12
909 107 123
908 107 253
906 108 386
905 108 521
903 109 656
902 109 791
900 109 927
899 110 1023
897 230 15
896 231 118
895 231 243
894 232 371
893 233 501
892 233 632
892 234 764
891 235 897
890 235 1023
890 362 18
889 362 115
889 363 238
889 363 364
889 364 493
889 364 624
890 364 756
890 365 890
890 365 1023
891 494 22
891 495 117
892 495 240
892 495 367
892 496 496
893 496 627
893 497 760
894 497 894
894 497 1023
895 629 26
896 629 122
896 629 244
897 629 372
898 629 502
898 629 634
899 629 768
900 629 905
901 629 1023
903 760 30
904 760 127
905 759 252
906 759 382
907 759 514
908 758 649
909 758 787
910 757 926
911 757 1023
913 887 35
914 887 134
915 886 262
916 886 394
917 885 529
918 885 667
919 884 807
920 884 949
921 883 1023
923 1014 40
924 1014 141
924 1013 270
925 1013 404
926 1013 541
926 1013 680
927 1013 821
928 1013 964
907 1020 1023
1023 8 10
1023 9 128
1023 9 260
1023 9 396
1023 10 534
1023 10 672
1023 11 810
1023 11 948
1023 12 1023
1023 108 13
1023 108 121
1023 109 250
1023 109 381
1023 109 513
1023 110 647
1023 110 781
1023 111 916
1023 111 1023
1023 232 16
1023 233 117
1023 233 240
1023 234 367
1023 235 497
1023 235 627
1023 236 759
1023 236 892
1023 237 1023
1023 363 19
1023 364 115
1023 364 238
1023 364 364
1023 365 493
1023 365 624
1023 365 757
1023 366 891
1023 366 1023
1023 496 23
1023 496 119
1023 496 241
1023 497 368
1023 497 497
1023 497 628
1023 498 761
1023 498 895
1023 498 1023
1023 629 27
1023 629 123
1023 629 246
1023 629 374
1023 629 505
1023 629 638
1023 629 773
1023 629 911
1023 628 1023
1023 759 31
1023 759 129
1023 758 255
1023 758 385
1023 757 519
1023 757 655
1023 757 793
1023 756 933
1023 756 1023
1023 885 36
1023 885 136
1023 885 264
1023 884 397
1023 884 533
1023 883 672
1023 883 812
1023 883 955
1023 882 1023
1023 1013 41
1023 1013 142
1023 1013 272
1023 1013 406
1023 1013 543
1023 1013 683
1023 1014 823
1023 1014 965
1023 1015 1023
