games/surveyor/assets/luts/shroud.3dl
0 256 512 767 1023
0 0 1
1 1 279
2 1 579
2 2 886
3 3 1023
7 213 8
0 251 256
0 244 595
0 232 959
0 222 1023
14 479 15
0 533 189
0 526 528
0 520 877
0 513 1023
22 758 22
0 821 134
0 821 465
0 815 815
0 809 1023
30 1023 30
0 1023 97
0 1023 405
0 1023 755
0 1023 1023
248 2 3
248 2 278
248 3 574
248 4 875
248 5 1023
244 218 10
243 219 260
242 221 534
242 222 812
241 224 1023
237 486 16
237 487 239
166 510 511
162 504 858
163 497 1023
242 759 24
242 760 242
110 805 452
99 801 801
93 795 1023
252 1023 33
253 1022 257
71 1023 412
39 1023 741
33 1023 1023
516 4 5
515 5 274
514 5 564
513 6 857
511 7 1023
503 223 12
501 224 253
500 226 519
498 227 790
497 229 1023
492 491 18
492 492 238
493 493 493
493 493 756
494 494 1023
499 761 26
500 761 245
501 761 503
429 783 784
432 774 1023
513 1019 35
514 1018 263
516 1016 531
387 1023 747
362 1023 1023
788 6 7
785 7 268
783 7 550
780 8 834
778 9 1023
765 228 14
763 229 246
761 230 506
760 232 771
758 233 1023
756 493 21
757 494 239
758 495 495
758 495 758
759 496 1023
766 761 29
768 760 250
769 760 510
771 759 781
773 758 1023
785 1015 38
786 1014 268
788 1014 538
789 1013 818
715 1023 1023
1023 8 10
1023 9 260
1023 10 534
1023 11 810
1023 12 1023
1023 232 16
1023 233 240
1023 235 497
1023 236 759
1023 237 1023
1023 496 23
1023 496 241
1023 497 497
1023 498 761
1023 498 1023
1023 759 31
1023 758 255
1023 757 519
1023 757 793
1023 756 1023
1023 1013 41
1023 1013 272
1023 1013 543
1023 1014 823
1023 1015 1023
