games/surveyor/assets/luts/tarn.3dl
0 64 128 192 256 320 384 448 512 575 639 703 767 831 895 959 1023
29 32 36
29 32 124
30 33 197
30 33 266
30 33 332
31 34 396
31 34 458
31 34 519
32 34 579
32 35 638
32 35 696
32 35 753
33 35 810
33 36 865
33 36 921
33 36 976
33 36 1023
32 119 40
7 126 129
5 124 225
4 122 315
5 121 402
5 120 485
5 118 565
6 117 637
8 117 700
11 116 757
13 116 811
15 116 862
18 116 912
19 116 961
21 117 1010
22 117 1023
24 117 1023
36 191 43
0 205 111
0 203 207
0 202 297
0 200 383
0 198 466
0 197 548
0 195 626
0 194 703
0 192 778
0 191 852
0 190 925
0 188 996
0 187 1023
0 186 1023
0 185 1023
0 185 1023
38 257 44
0 279 94
0 277 189
0 275 279
0 273 365
0 272 448
0 270 529
0 268 609
0 267 688
0 265 764
0 263 838
0 262 911
0 260 982
0 259 1023
0 257 1023
0 256 1023
0 255 1023
39 320 44
0 347 80
0 347 171
0 345 260
0 343 346
0 342 430
0 340 511
0 338 591
0 337 669
0 335 746
0 333 823
0 332 897
0 330 970
0 328 1023
0 326 1023
0 325 1023
0 323 1023
40 380 44
0 413 66
0 415 153
0 413 242
0 411 328
0 409 411
0 407 493
0 406 573
0 404 651
0 402 728
0 401 804
0 399 879
0 397 954
0 396 1023
0 394 1023
0 392 1023
0 391 1023
40 439 43
0 476 53
0 480 135
0 478 224
0 477 310
0 475 393
0 473 475
0 471 555
0 470 633
0 468 710
0 466 786
0 465 861
0 463 936
0 461 1009
0 460 1023
0 458 1023
0 456 1023
40 496 42
0 537 42
0 543 120
0 543 206
0 541 292
0 539 376
0 537 457
0 536 537
0 534 615
0 532 692
0 531 769
0 529 844
0 527 918
0 526 992
0 524 1023
0 523 1023
0 521 1023
40 552 41
0 594 38
0 604 106
0 606 189
0 604 275
0 603 359
0 601 440
0 599 520
0 597 598
0 596 676
0 594 752
0 593 827
0 591 902
0 590 975
0 588 1023
0 587 1023
0 585 1023
40 608 41
0 649 38
0 664 94
0 668 174
0 667 259
0 665 342
0 664 424
0 662 504
0 661 582
0 659 659
0 657 736
0 656 811
0 654 886
0 653 960
0 652 1023
0 650 1023
0 649 1023
41 664 42
0 703 40
0 725 83
0 730 160
0 730 243
0 728 327
0 727 408
0 725 488
0 724 567
0 722 644
0 721 721
0 719 796
0 718 871
0 716 945
0 715 1018
0 714 1023
0 712 1023
43 720 43
0 757 46
0 785 73
0 790 148
0 792 229
0 791 312
0 789 394
0 788 474
0 787 553
0 785 630
0 784 707
0 783 783
0 781 857
0 780 932
0 779 1005
0 778 1023
0 776 1023
45 776 46
0 811 52
0 846 64
0 851 139
0 855 217
0 854 299
0 853 381
0 851 461
0 850 540
0 849 618
0 847 694
0 846 770
0 845 845
0 844 919
0 842 992
0 841 1023
0 840 1023
49 833 49
0 866 59
0 907 57
0 913 130
0 917 206
0 917 287
0 916 369
0 914 449
0 913 528
0 912 605
0 910 682
0 909 758
0 908 832
0 907 907
0 905 980
0 904 1023
0 903 1023
52 891 52
0 922 66
0 967 52
0 974 122
0 978 196
0 979 275
0 978 356
0 977 437
0 975 515
0 974 593
0 973 670
0 971 745
0 970 820
0 969 894
0 968 968
0 966 1023
0 965 1023
56 948 55
0 978 73
0 1023 51
0 1023 114
0 1023 187
0 1023 264
0 1023 344
0 1023 424
0 1023 503
0 1023 581
0 1023 657
0 1023 733
0 1023 808
0 1023 882
0 1023 955
0 1023 1023
0 1023 1023
59 1006 59
0 1023 80
0 1023 52
0 1023 107
0 1023 179
0 1023 253
0 1023 332
0 1023 412
0 1023 491
0 1023 569
0 1023 645
0 1023 721
0 1023 796
0 1023 870
0 1023 943
0 1023 1016
0 1023 1023
111 33 38
111 34 125
112 34 198
112 34 267
112 35 332
113 35 396
113 35 458
113 35 519
113 36 579
114 36 637
114 36 695
114 36 752
114 36 809
114 37 864
115 37 919
115 37 974
115 37 1023
115 120 42
116 120 128
116 121 200
116 121 268
116 121 333
117 121 396
117 121 458
117 121 518
117 122 576
117 122 634
118 122 691
118 122 747
118 122 803
118 122 858
118 122 912
118 122 966
118 122 1019
118 192 44
118 192 129
97 197 201
97 195 292
96 194 377
96 193 459
97 191 531
99 190 595
101 190 653
104 190 708
105 189 761
107 189 813
108 189 864
110 189 914
111 189 964
112 189 1013
112 190 1023
120 258 44
120 258 129
82 270 184
78 269 272
76 267 358
75 265 441
75 263 522
75 262 599
75 260 675
74 259 748
74 257 821
74 256 891
74 255 957
76 254 1018
77 253 1023
80 252 1023
82 252 1023
121 320 44
121 320 128
69 339 170
60 339 253
58 337 339
56 335 423
55 333 504
53 331 584
52 330 661
52 328 736
52 326 809
53 325 881
53 323 951
53 322 1020
52 320 1023
52 319 1023
51 317 1023
122 380 44
122 380 127
57 404 155
43 406 236
41 404 321
39 402 405
37 401 486
35 399 566
34 397 644
32 395 721
31 394 797
30 392 871
30 390 942
30 388 1012
30 387 1023
31 385 1023
31 384 1023
122 439 43
122 439 125
48 466 143
29 470 219
23 470 303
22 468 386
20 466 468
18 464 548
17 463 626
15 461 703
13 459 779
12 458 854
10 456 929
9 454 1002
8 453 1023
8 451 1023
8 449 1023
122 496 42
123 496 124
47 524 137
17 533 204
7 534 286
5 532 369
3 531 450
2 529 530
0 527 608
0 526 686
0 524 762
0 522 837
0 521 912
0 519 985
0 518 1023
0 516 1023
0 514 1023
123 553 42
123 553 124
49 580 136
6 595 190
0 597 269
0 596 352
0 594 433
0 593 513
0 591 592
0 589 669
0 588 745
0 586 820
0 585 895
0 583 969
0 582 1023
0 580 1023
0 579 1023
123 609 42
123 609 124
54 636 137
0 655 178
0 659 254
0 659 336
0 657 417
0 656 497
0 654 576
0 653 653
0 651 729
0 650 805
0 648 879
0 647 953
0 645 1023
0 644 1023
0 643 1023
124 665 43
125 665 125
60 690 141
0 716 167
0 720 241
0 722 321
0 720 402
0 719 482
0 717 561
0 716 638
0 715 715
0 713 790
0 712 865
0 710 939
0 709 1012
0 708 1023
0 707 1023
126 721 44
127 721 127
66 745 145
0 777 157
0 782 231
0 784 307
0 784 388
0 782 468
0 781 547
0 779 625
0 778 701
0 777 777
0 776 852
0 774 926
0 773 999
0 772 1023
0 771 1023
129 778 47
130 778 130
73 801 151
0 838 151
0 843 221
0 847 296
0 847 376
0 846 456
0 844 534
0 843 612
0 842 689
0 840 764
0 839 839
0 838 913
0 837 987
0 835 1023
0 834 1023
132 835 50
133 836 133
81 857 157
0 897 148
0 905 213
0 908 286
0 910 363
0 909 443
0 907 522
0 906 600
0 905 676
0 903 752
0 902 827
0 901 901
0 900 974
0 898 1023
0 897 1023
136 893 54
137 894 136
88 913 162
0 956 147
0 967 205
0 970 277
0 972 352
0 971 431
0 970 510
0 968 587
0 967 664
0 966 740
0 964 814
0 963 888
0 962 962
0 961 1023
0 959 1023
140 951 57
140 951 139
95 970 168
0 1013 149
0 1023 197
0 1023 268
0 1023 341
0 1023 419
0 1023 498
0 1023 575
0 1023 652
0 1023 727
0 1023 802
0 1023 876
0 1023 950
0 1022 1022
0 1021 1023
143 1008 60
144 1009 143
101 1023 174
0 1023 152
0 1023 189
0 1023 259
0 1023 331
0 1023 407
0 1023 485
0 1023 563
0 1023 640
0 1023 715
0 1023 790
0 1023 864
0 1023 938
0 1023 1010
0 1023 1023
179 34 39
180 35 126
180 35 199
181 35 267
181 36 333
181 36 396
182 36 458
182 36 519
182 36 578
182 37 637
183 37 694
183 37 751
183 37 807
183 37 863
183 37 918
184 38 972
184 38 1023
184 121 42
184 121 128
185 121 201
185 121 268
185 122 333
185 122 396
186 122 457
186 122 517
186 122 575
186 122 633
186 122 690
186 122 746
187 122 801
187 122 856
187 122 910
187 123 963
187 123 1016
187 192 44
187 192 129
187 192 201
188 193 267
188 193 331
188 193 393
188 193 454
188 193 513
188 193 571
188 193 628
189 193 684
189 193 739
189 193 794
189 193 848
189 193 901
189 193 954
189 193 1007
189 258 44
189 258 129
189 258 199
171 263 268
170 261 353
170 260 433
171 258 504
173 257 568
175 257 626
177 256 682
178 256 735
180 256 788
181 256 839
182 255 890
183 255 940
183 255 990
184 255 1023
190 320 44
190 320 128
190 320 198
157 331 252
150 331 333
149 329 417
149 327 497
149 325 573
149 324 648
148 322 721
148 321 792
148 319 860
149 318 923
150 317 982
152 316 1023
155 315 1023
157 315 1023
191 380 44
191 380 127
191 380 196
144 397 236
133 398 315
131 396 398
129 395 480
127 393 559
127 391 636
127 389 711
127 387 783
127 386 854
127 384 924
127 383 992
126 381 1023
126 380 1023
125 378 1023
191 439 43
191 439 125
192 439 194
137 459 224
119 463 299
113 462 380
112 460 462
110 459 542
108 457 620
107 455 697
105 453 773
105 452 846
105 450 917
105 448 987
106 446 1023
106 445 1023
106 443 1023
192 496 42
192 496 124
192 496 193
135 517 218
107 525 283
97 526 363
95 525 444
93 523 524
92 521 602
90 520 680
88 518 756
87 517 831
85 515 906
84 513 978
84 512 1023
84 510 1023
85 508 1023
192 553 42
192 553 124
192 553 193
137 574 216
95 587 269
82 590 347
79 589 428
77 587 507
76 585 586
74 584 663
72 582 739
71 581 815
69 579 889
68 578 963
67 576 1023
65 575 1023
65 573 1023
193 609 42
193 609 125
193 610 194
140 630 217
85 649 257
70 652 332
63 652 412
62 650 492
60 649 570
59 647 647
57 646 724
56 644 799
55 643 874
53 641 948
52 640 1021
50 639 1023
49 637 1023
194 665 43
194 666 126
195 666 195
145 685 219
75 710 246
60 713 320
50 715 397
48 714 477
46 712 556
45 711 633
43 709 709
42 708 785
41 707 860
39 705 934
38 704 1007
37 703 1023
36 702 1023
196 722 45
197 722 128
197 723 197
150 741 223
67 771 237
51 775 309
39 778 384
34 777 463
33 776 542
32 775 620
30 773 696
29 772 772
28 771 847
27 770 921
25 768 994
24 767 1023
23 766 1023
199 779 48
200 780 131
200 780 200
156 798 228
65 831 232
44 837 300
29 840 374
22 841 451
20 840 530
19 838 607
18 837 684
17 836 760
15 834 834
14 833 908
13 832 982
12 831 1023
10 829 1023
203 837 52
203 838 134
204 838 203
163 855 233
66 891 230
36 899 291
21 902 363
11 903 439
8 902 517
7 901 595
5 900 671
4 899 747
3 897 822
2 896 896
0 895 969
0 894 1023
0 892 1023
207 895 55
207 896 137
208 896 207
169 912 238
69 949 231
29 961 283
14 964 354
1 965 428
0 965 505
0 963 583
0 962 659
0 961 735
0 960 810
0 958 884
0 957 957
0 956 1023
0 955 1023
210 953 58
211 954 141
211 954 210
176 969 243
74 1007 233
22 1023 274
6 1023 345
0 1023 417
0 1023 493
0 1023 570
0 1023 647
0 1023 723
0 1021 797
0 1020 872
0 1019 945
0 1018 1018
0 1016 1023
214 1011 61
215 1012 144
215 1013 213
182 1023 249
80 1023 236
14 1023 266
0 1023 336
0 1023 407
0 1023 481
0 1023 558
0 1023 635
0 1023 710
0 1023 785
0 1023 859
0 1023 933
0 1023 1006
0 1023 1023
244 35 40
245 36 126
245 36 199
245 36 268
246 36 333
246 37 396
246 37 458
246 37 518
247 37 578
247 37 636
247 37 693
247 38 750
247 38 806
248 38 861
248 38 916
248 38 970
248 38 1023
249 121 43
249 122 129
249 122 201
250 122 268
250 122 333
250 122 395
250 122 456
250 122 516
251 123 574
251 123 632
251 123 688
251 123 744
251 123 799
251 123 854
251 123 907
252 123 961
