games/surveyor/assets/luts/tarn.3dl
0 128 256 384 512 639 767 895 1023
29 32 36
30 33 197
30 33 332
31 34 458
32 34 579
32 35 696
33 35 810
33 36 921
33 36 1023
36 191 43
0 203 207
0 200 383
0 197 548
0 194 703
0 191 852
0 188 996
0 186 1023
0 185 1023
39 320 44
0 347 171
0 343 346
0 340 511
0 337 669
0 333 823
0 330 970
0 326 1023
0 323 1023
40 439 43
0 480 135
0 477 310
0 473 475
0 470 633
0 466 786
0 463 936
0 460 1023
0 456 1023
40 552 41
0 604 106
0 604 275
0 601 440
0 597 598
0 594 752
0 591 902
0 588 1023
0 585 1023
41 664 42
0 725 83
0 730 243
0 727 408
0 724 567
0 721 721
0 718 871
0 715 1018
0 712 1023
45 776 46
0 846 64
0 855 217
0 853 381
0 850 540
0 847 694
0 845 845
0 842 992
0 840 1023
52 891 52
0 967 52
0 978 196
0 978 356
0 975 515
0 973 670
0 970 820
0 968 968
0 965 1023
59 1006 59
0 1023 52
0 1023 179
0 1023 332
0 1023 491
0 1023 645
0 1023 796
0 1023 943
0 1023 1023
179 34 39
180 35 199
181 36 333
182 36 458
182 36 578
183 37 694
183 37 807
183 37 918
184 38 1023
187 192 44
187 192 201
188 193 331
188 193 454
188 193 571
189 193 684
189 193 794
189 193 901
189 193 1007
190 320 44
190 320 198
150 331 333
149 327 497
149 324 648
148 321 792
149 318 923
152 316 1023
157 315 1023
191 439 43
192 439 194
119 463 299
112 460 462
108 457 620
105 453 773
105 450 917
106 446 1023
106 443 1023
192 553 42
192 553 193
95 587 269
79 589 428
76 585 586
72 582 739
69 579 889
67 576 1023
65 573 1023
194 665 43
195 666 195
75 710 246
50 715 397
46 712 556
43 709 709
41 707 860
38 704 1007
36 702 1023
199 779 48
200 780 200
65 831 232
29 840 374
20 840 530
18 837 684
15 834 834
13 832 982
10 829 1023
207 895 55
208 896 207
69 949 231
14 964 354
0 965 505
0 962 659
0 960 810
0 957 957
0 955 1023
214 1011 61
215 1013 213
80 1023 236
0 1023 336
0 1023 481
0 1023 635
0 1023 785
0 1023 933
0 1023 1023
306 36 40
307 37 200
308 37 333
308 37 458
309 38 577
309 38 692
309 38 804
310 38 914
310 38 1021
313 193 44
314 193 200
315 193 330
315 193 452
315 193 568
315 193 680
316 193 790
316 193 897
316 193 1001
317 320 44
317 320 197
318 320 325
318 320 444
318 320 559
318 320 670
318 320 778
318 320 883
318 320 987
318 439 43
319 439 194
319 439 321
283 449 450
283 445 601
282 442 745
284 439 874
287 437 989
291 436 1023
320 553 42
320 554 194
320 554 321
257 575 420
245 575 575
243 572 728
243 568 874
243 565 1013
244 562 1023
322 667 45
323 668 196
324 668 324
237 699 397
217 703 546
214 700 700
211 698 851
209 695 998
208 693 1023
329 782 51
330 783 203
331 785 330
231 822 385
198 829 523
188 828 675
186 826 826
183 823 973
181 821 1023
337 899 57
338 900 209
339 901 337
235 941 383
182 954 503
164 953 650
161 951 801
159 948 948
156 946 1023
345 1015 64
346 1017 216
347 1018 343
245 1023 386
167 1023 484
143 1023 627
137 1023 776
134 1023 924
132 1023 1023
425 37 41
426 38 200
427 38 332
427 38 456
428 39 575
428 39 690
428 39 801
429 39 910
429 39 1017
433 193 44
433 193 199
434 193 328
434 193 449
434 193 565
435 193 677
435 193 786
435 193 892
435 193 997
436 320 44
437 320 196
437 320 323
437 320 442
437 320 557
437 320 667
438 320 775
438 320 881
438 319 985
438 439 42
438 439 194
438 439 321
439 439 440
439 439 554
439 439 665
439 439 773
439 439 880
439 439 984
439 554 43
440 554 194
440 555 321
441 555 441
409 564 564
408 561 709
411 559 841
415 557 960
419 556 1023
443 669 46
444 670 198
445 670 326
446 671 446
390 691 542
375 692 692
376 689 839
377 686 980
377 684 1023
451 785 53
452 787 205
453 788 332
454 789 452
383 815 529
355 819 668
346 817 817
344 815 965
344 812 1023
459 902 59
461 904 211
462 905 339
463 907 459
386 936 524
338 945 646
322 943 793
319 940 940
316 938 1023
468 1019 66
470 1021 218
471 1022 345
472 1023 465
393 1023 525
323 1023 627
301 1023 769
294 1023 916
292 1023 1023
539 38 42
540 38 200
541 39 331
541 39 455
542 39 573
542 39 687
543 39 797
543 39 906
543 39 1012
547 193 44
548 193 198
548 193 327
549 193 447
549 193 562
549 193 674
549 193 782
550 192 888
550 192 992
551 320 43
551 320 195
552 320 322
552 320 441
552 320 555
552 320 666
552 319 774
552 319 880
552 319 984
553 439 42
553 439 194
553 439 321
553 439 440
553 439 554
554 440 665
554 440 774
554 440 880
554 440 984
555 555 44
555 555 195
556 556 322
556 556 442
557 557 557
557 557 668
558 558 777
558 558 884
559 559 988
560 671 48
561 672 200
562 673 328
563 674 448
564 675 563
536 683 682
539 681 818
543 679 941
547 679 1023
568 788 55
570 790 207
571 791 335
572 792 454
573 793 570
527 809 666
505 810 808
507 808 951
507 807 1023
578 906 61
579 908 213
580 909 341
581 910 461
582 911 576
528 932 658
488 937 786
473 932 932
474 931 1023
587 1023 68
589 1023 220
590 1023 348
591 1023 467
592 1023 583
533 1023 656
473 1023 766
453 1023 908
446 1023 1023
650 38 42
651 39 199
652 39 330
652 39 453
653 39 570
653 39 683
654 39 793
654 39 901
654 39 1007
658 192 44
659 193 197
660 193 325
660 193 445
660 192 560
660 192 671
661 192 779
661 192 885
661 192 989
662 319 43
663 319 194
663 320 321
663 319 440
663 319 554
663 319 665
663 319 773
663 319 879
663 319 983
664 439 42
664 439 194
664 439 321
665 440 440
665 440 555
665 440 666
665 440 774
666 441 880
666 441 985
667 556 44
667 556 196
668 557 323
668 558 443
669 558 558
670 559 670
670 559 779
671 560 885
672 561 990
673 673 50
675 675 202
676 676 330
677 677 450
678 678 565
679 679 676
680 680 785
680 680 892
681 681 997
683 792 57
684 793 209
685 794 337
686 795 456
688 797 572
689 798 683
666 805 798
670 803 926
674 802 1023
693 909 64
694 911 215
696 912 343
697 914 463
698 915 578
699 916 690
664 929 787
634 929 922
635 929 1023
703 1023 70
704 1023 222
705 1023 350
707 1023 470
708 1023 585
709 1023 696
667 1023 783
618 1023 902
600 1023 1023
759 39 42
760 39 198
760 39 328
761 39 450
761 39 567
762 39 680
762 39 789
763 39 897
763 39 1002
767 192 43
768 192 196
768 192 323
769 192 443
769 192 557
769 192 668
769 192 776
770 192 882
770 192 986
771 319 42
771 319 193
771 319 320
772 319 439
772 319 554
772 319 665
772 319 773
772 320 879
772 320 983
773 439 43
773 440 194
773 440 321
774 440 440
774 440 555
774 441 666
775 441 775
775 441 881
775 442 986
776 557 46
777 558 197
778 559 325
779 559 445
780 560 560
780 561 672
781 562 781
782 563 887
783 563 992
784 676 52
786 677 204
787 678 332
788 679 452
789 680 567
790 681 678
791 682 787
792 683 894
793 684 999
795 795 59
796 796 211
798 798 339
799 799 458
800 800 574
801 801 685
802 802 794
803 803 901
804 804 1006
806 913 66
807 915 217
808 916 345
810 917 465
811 918 580
812 920 692
813 921 801
796 926 912
799 925 1023
816 1023 72
817 1023 224
819 1023 352
820 1023 472
821 1023 587
822 1023 698
823 1023 807
796 1023 905
759 1023 1023
865 39 42
866 39 197
867 39 327
867 39 448
868 39 564
868 39 676
869 39 786
869 39 892
870 39 997
874 192 42
874 192 194
875 192 322
875 192 441
876 192 555
876 192 666
876 192 774
876 191 880
876 191 984
877 319 42
878 319 193
878 319 320
878 319 439
878 319 554
878 320 665
878 320 773
879 320 879
879 320 984
879 440 43
880 440 194
880 441 322
881 441 441
881 441 556
882 442 667
882 442 776
883 443 883
883 443 987
884 559 47
885 560 199
886 561 327
887 562 447
888 563 562
889 563 674
890 564 783
891 565 889
892 566 994
894 679 54
895 680 206
897 681 334
898 682 454
899 683 569
900 684 680
901 685 789
902 686 896
903 687 1001
905 798 61
907 799 213
908 801 341
909 802 460
910 803 576
912 804 687
913 805 796
914 807 903
915 808 1008
916 916 68
918 918 219
919 919 347
921 921 467
922 922 582
923 923 694
924 924 803
925 925 910
926 926 1015
927 1023 74
928 1023 226
929 1023 354
931 1023 474
932 1023 589
932 1023 700
933 1023 809
934 1023 916
921 1023 1023
970 38 41
971 39 196
972 39 325
972 39 446
973 39 561
973 39 673
974 38 782
974 38 888
974 38 992
979 191 42
979 191 193
980 191 320
980 191 439
980 191 554
980 191 664
981 191 772
981 191 878
981 191 982
982 319 42
982 319 193
982 319 320
983 320 439
983 320 554
983 320 665
983 320 773
983 320 879
984 321 984
985 440 44
985 441 195
986 442 323
986 442 442
987 443 557
987 443 669
988 444 777
989 444 884
990 445 989
991 561 49
992 562 201
993 563 329
995 564 449
996 565 564
997 566 675
998 567 784
999 568 891
1000 569 996
1002 681 56
1003 683 208
1005 684 336
1006 685 456
1007 686 571
1008 687 682
1010 688 791
1011 689 898
1012 690 1003
1014 801 63
1015 803 215
1017 804 342
1018 805 462
1019 806 577
1021 808 689
1022 809 798
1023 810 905
1023 811 1010
1023 920 69
1023 921 221
1023 922 349
1023 924 469
1023 925 584
1023 926 696
1023 927 805
1023 928 912
1023 929 1017
1023 1023 76
1023 1023 228
1023 1023 356
1023 1023 475
1023 1023 591
1023 1023 702
1023 1023 811
1023 1023 918
1023 1023 1023
