games/surveyor/assets/luts/tarn.3dl
0 256 512 767 1023
29 32 36
30 33 332
32 34 579
33 35 810
33 36 1023
39 320 44
0 343 346
0 337 669
0 330 970
0 323 1023
40 552 41
0 604 275
0 597 598
0 591 902
0 585 1023
45 776 46
0 855 217
0 850 540
0 845 845
0 840 1023
59 1006 59
0 1023 179
0 1023 491
0 1023 796
0 1023 1023
306 36 40
308 37 333
309 38 577
309 38 804
310 38 1021
317 320 44
318 320 325
318 320 559
318 320 778
318 320 987
320 553 42
320 554 321
245 575 575
243 568 874
244 562 1023
329 782 51
331 785 330
198 829 523
186 826 826
181 821 1023
345 1015 64
347 1018 343
167 1023 484
137 1023 776
132 1023 1023
539 38 42
541 39 331
542 39 573
543 39 797
543 39 1012
551 320 43
552 320 322
552 320 555
552 319 774
552 319 984
555 555 44
556 556 322
557 557 557
558 558 777
559 559 988
568 788 55
571 791 335
573 793 570
505 810 808
507 807 1023
587 1023 68
590 1023 348
592 1023 583
473 1023 766
446 1023 1023
759 39 42
760 39 328
761 39 567
762 39 789
763 39 1002
771 319 42
771 319 320
772 319 554
772 319 773
772 320 983
776 557 46
778 559 325
780 560 560
781 562 781
783 563 992
795 795 59
798 798 339
800 800 574
802 802 794
804 804 1006
816 1023 72
819 1023 352
821 1023 587
823 1023 807
759 1023 1023
970 38 41
972 39 325
973 39 561
974 38 782
974 38 992
982 319 42
982 319 320
983 320 554
983 320 773
984 321 984
991 561 49
993 563 329
996 565 564
998 567 784
1000 569 996
1014 801 63
1017 804 342
1019 806 577
1022 809 798
1023 811 1010
1023 1023 76
1023 1023 356
1023 1023 591
1023 1023 811
1023 1023 1023
