games/surveyor/assets/luts/vault.3dl
0 64 128 192 256 320 384 448 512 575 639 703 767 831 895 959 1023
0 0 0
0 0 48
0 0 143
0 0 237
0 0 329
0 0 421
0 0 512
0 0 603
0 0 693
0 0 782
0 0 871
0 0 959
0 0 1023
0 0 1023
0 0 1023
0 0 1023
0 0 1023
0 29 0
0 33 41
0 30 146
0 28 259
0 27 352
0 27 439
0 27 525
0 26 612
0 26 698
0 26 784
0 26 871
0 26 957
0 25 1023
0 25 1023
0 25 1023
0 25 1023
0 24 1023
0 98 0
0 112 25
0 111 119
0 110 213
0 108 306
0 105 412
0 101 524
0 99 634
0 97 742
0 95 841
0 94 933
0 93 1019
0 93 1023
0 92 1023
0 92 1023
0 92 1023
0 92 1023
0 168 0
0 179 14
0 190 102
0 189 195
0 187 288
0 185 380
0 184 472
0 181 566
0 178 669
0 175 774
0 172 879
0 169 982
0 167 1023
0 166 1023
0 164 1023
0 163 1023
0 162 1023
0 238 0
0 247 9
0 268 84
0 266 178
0 265 271
0 263 363
0 261 454
0 260 545
0 258 636
0 256 726
0 254 821
0 251 919
0 248 1018
0 245 1023
0 243 1023
0 241 1023
0 239 1023
0 310 0
0 316 9
0 341 70
0 344 160
0 342 253
0 340 345
0 339 436
0 337 527
0 335 618
0 334 708
0 332 798
0 330 888
0 328 979
0 326 1023
0 323 1023
0 321 1023
0 319 1023
0 383 0
0 387 8
0 412 58
0 420 143
0 419 235
0 417 327
0 415 419
0 414 510
0 412 600
0 410 691
0 409 781
0 407 870
0 405 960
0 404 1023
0 402 1023
0 400 1023
0 398 1023
0 457 0
0 460 6
0 484 46
0 496 126
0 495 218
0 493 310
0 491 401
0 490 492
0 488 583
0 486 673
0 485 763
0 483 853
0 482 942
0 480 1023
0 478 1023
0 477 1023
0 475 1023
0 532 0
0 533 4
0 559 34
0 569 112
0 571 201
0 569 293
0 567 384
0 566 475
0 564 566
0 563 656
0 561 746
0 559 836
0 558 925
0 556 1015
0 554 1023
0 553 1023
0 551 1023
0 606 0
0 607 1
0 633 27
0 643 99
0 647 184
0 645 276
0 643 367
0 642 458
0 640 549
0 638 639
0 637 729
0 635 819
0 634 909
0 632 998
0 631 1023
0 629 1023
0 627 1023
0 680 0
0 680 0
0 705 24
0 716 88
0 721 169
0 721 259
0 719 351
0 718 442
0 716 533
0 714 623
0 713 713
0 711 803
0 710 893
0 708 982
0 707 1023
0 705 1023
0 704 1023
0 751 0
0 751 0
0 774 23
0 790 77
0 795 156
0 797 243
0 795 335
0 794 426
0 792 517
0 790 607
0 789 697
0 787 787
0 786 877
0 784 966
0 783 1023
0 781 1023
0 780 1023
0 822 0
0 822 0
0 844 23
0 863 67
0 869 145
0 872 229
0 871 320
0 870 411
0 868 502
0 867 592
0 865 682
0 863 772
0 862 862
0 860 951
0 859 1023
0 857 1023
0 856 1023
0 893 0
0 893 0
0 913 24
0 936 58
0 942 135
0 947 216
0 947 305
0 946 396
0 944 487
0 943 577
0 941 667
0 939 757
0 938 847
0 936 936
0 935 1023
0 933 1023
0 932 1023
0 964 0
0 964 0
0 982 24
0 1009 51
0 1015 125
0 1021 204
0 1023 290
0 1021 381
0 1020 472
0 1018 562
0 1017 652
0 1015 742
0 1014 832
0 1012 921
0 1011 1011
0 1009 1023
0 1008 1023
0 1023 0
0 1023 0
0 1023 24
0 1023 47
0 1023 116
0 1023 194
0 1023 276
0 1023 366
0 1023 457
0 1023 547
0 1023 637
0 1023 727
0 1023 817
0 1023 906
0 1023 996
0 1023 1023
0 1023 1023
0 1023 0
0 1023 0
0 1023 24
0 1023 44
0 1023 107
0 1023 184
0 1023 264
0 1023 351
0 1023 442
0 1023 532
0 1023 623
0 1023 712
0 1023 802
0 1023 892
0 1023 981
0 1023 1023
0 1023 1023
24 0 0
24 0 47
23 0 142
23 0 236
23 0 329
23 0 420
22 0 511
22 0 602
22 0 691
22 0 781
22 0 869
21 0 958
21 0 1023
21 0 1023
21 0 1023
21 0 1023
20 0 1023
23 28 0
22 28 45
22 28 140
22 28 233
22 27 325
22 27 417
21 27 507
21 27 597
21 26 686
21 26 774
21 26 862
20 25 950
20 25 1023
20 25 1023
20 25 1023
20 24 1023
19 24 1023
20 98 0
19 99 38
9 109 117
8 108 211
7 104 318
7 100 431
7 97 541
8 96 641
9 95 732
10 94 817
11 94 900
12 93 981
12 93 1023
13 93 1023
13 93 1023
13 93 1023
14 93 1023
18 168 0
18 168 34
0 188 99
0 187 193
0 185 286
0 183 378
0 181 472
0 177 576
0 174 682
0 171 787
0 168 890
0 167 991
0 165 1023
0 164 1023
0 163 1023
0 162 1023
0 161 1023
16 238 0
16 238 29
0 262 86
0 264 176
0 263 268
0 261 360
0 259 452
0 258 543
0 256 634
0 253 729
0 250 827
0 247 926
0 245 1023
0 242 1023
0 240 1023
0 238 1023
0 237 1023
13 310 0
13 310 23
0 332 75
0 342 158
0 340 251
0 338 343
0 337 434
0 335 525
0 333 616
0 332 706
0 330 796
0 328 887
0 326 979
0 323 1023
0 320 1023
0 318 1023
0 316 1023
11 383 0
11 383 17
0 404 62
0 418 141
0 417 233
0 415 325
0 413 417
0 412 508
0 410 598
0 408 689
0 407 779
0 405 868
0 403 958
0 402 1023
0 400 1023
0 398 1023
0 395 1023
8 457 0
8 457 12
0 478 52
0 491 127
0 493 216
0 491 308
0 490 399
0 488 490
0 486 581
0 485 671
0 483 761
0 481 851
0 480 940
0 478 1023
0 477 1023
0 475 1023
0 473 1023
5 532 0
5 532 7
0 551 46
0 564 114
0 569 199
0 567 291
0 566 382
0 564 473
0 562 564
0 561 654
0 559 744
0 558 834
0 556 923
0 554 1013
0 553 1023
0 551 1023
0 550 1023
2 606 0
2 606 3
0 624 43
0 639 102
0 644 183
0 643 274
0 642 365
0 640 456
0 638 547
0 637 637
0 635 728
0 634 817
0 632 907
0 631 996
0 629 1023
0 627 1023
0 626 1023
0 679 0
0 679 0
0 695 42
0 713 90
0 718 169
0 719 257
0 718 349
0 716 440
0 714 531
0 713 621
0 711 711
0 710 801
0 708 891
0 707 980
0 705 1023
0 704 1023
0 702 1023
0 751 0
0 751 0
0 765 42
0 787 80
0 792 157
0 795 242
0 794 333
0 792 425
0 791 515
0 789 606
0 788 696
0 786 786
0 784 876
0 783 965
0 781 1023
0 780 1023
0 778 1023
0 822 0
0 822 0
0 834 42
0 859 71
0 866 147
0 870 229
0 870 318
0 868 409
0 867 500
0 865 591
0 864 681
0 862 771
0 861 861
0 859 950
0 858 1023
0 856 1023
0 855 1023
0 893 0
0 893 0
0 904 41
0 931 66
0 939 137
0 944 217
0 946 303
0 944 394
0 943 485
0 941 576
0 940 666
0 938 756
0 937 846
0 935 935
0 934 1023
0 932 1023
0 931 1023
0 963 0
0 963 0
0 974 41
0 1002 63
0 1012 128
0 1018 206
0 1021 289
0 1020 379
0 1018 470
0 1017 561
0 1015 651
0 1014 741
0 1012 831
0 1011 920
0 1009 1009
0 1008 1023
0 1006 1023
0 1023 0
0 1023 0
0 1023 41
0 1023 61
0 1023 119
0 1023 196
0 1023 277
0 1023 365
0 1023 455
0 1023 546
0 1023 636
0 1023 726
0 1023 816
0 1023 905
0 1023 994
0 1023 1023
0 1023 1023
0 1023 0
0 1023 0
0 1023 41
0 1023 61
0 1023 110
0 1023 187
0 1023 265
0 1023 350
0 1023 440
0 1023 531
0 1023 621
0 1023 711
0 1023 801
0 1023 890
0 1023 979
0 1023 1023
0 1023 1023
86 0 0
86 0 46
86 0 141
85 0 235
85 0 327
85 0 418
85 0 509
85 0 599
85 0 688
85 0 777
85 0 865
84 0 952
84 0 1023
84 0 1023
84 0 1023
84 0 1023
84 0 1023
85 28 0
85 27 44
85 27 138
85 27 231
85 27 323
84 26 414
84 26 504
84 26 593
84 25 682
84 25 770
84 25 857
84 25 944
84 24 1023
84 24 1023
84 24 1023
84 23 1023
84 23 1023
84 97 0
84 97 39
84 97 132
84 97 223
84 96 313
84 96 402
84 96 490
84 96 578
84 96 664
83 95 750
83 95 835
83 95 919
83 95 1003
83 94 1023
83 94 1023
83 94 1023
83 94 1023
83 167 0
83 167 33
83 167 124
83 182 188
79 176 293
76 171 402
74 168 507
73 166 604
74 165 692
75 164 776
76 164 857
77 164 936
78 164 1014
78 164 1023
79 163 1023
79 163 1023
80 163 1023
83 238 0
83 238 27
83 238 116
67 256 176
65 258 263
64 256 355
62 254 449
61 250 549
61 246 650
60 243 750
59 240 847
59 239 943
59 237 1023
59 236 1023
60 235 1023
62 234 1023
63 234 1023
83 310 0
83 310 21
83 310 108
55 327 166
49 335 245
48 333 337
46 331 429
44 330 520
43 328 611
42 325 704
42 322 798
42 320 892
43 317 985
43 315 1023
43 313 1023
42 311 1023
42 310 1023
82 383 0
82 383 16
82 383 100
46 400 152
34 411 228
31 410 320
30 408 411
28 407 502
27 405 593
25 403 683
23 402 773
22 400 863
22 397 953
23 395 1023
23 393 1023
24 391 1023
24 389 1023
82 457 0
82 457 11
81 457 92
40 474 139
22 485 214
15 486 302
14 485 394
12 483 485
11 481 576
9 480 666
7 478 756
6 476 846
4 475 935
3 473 1023
2 471 1023
2 469 1023
3 467 1023
80 532 0
80 532 6
80 532 86
39 548 131
12 559 201
0 562 285
0 561 377
0 559 468
0 557 559
0 556 649
0 554 739
0 553 829
0 551 918
0 549 1008
0 548 1023
0 546 1023
0 545 1023
79 606 0
78 606 2
78 606 80
39 621 126
2 633 187
0 637 270
0 637 360
0 635 451
0 634 542
0 632 632
0 630 722
0 629 812
0 627 902
0 626 991
0 624 1023
0 622 1023
0 621 1023
76 679 0
76 679 0
76 678 76
40 692 124
0 708 175
0 712 256
0 713 344
0 711 435
0 710 526
0 708 616
0 706 707
0 705 796
0 703 886
0 702 976
0 700 1023
0 699 1023
0 697 1023
73 750 0
73 750 0
73 749 73
40 762 122
0 781 165
0 786 244
0 789 329
0 787 420
0 786 511
0 784 601
0 783 691
0 781 781
0 780 871
0 778 960
0 777 1023
0 775 1023
0 774 1023
71 821 0
71 821 0
70 820 70
40 832 122
0 854 157
0 860 233
0 864 315
0 864 405
0 862 496
0 860 586
0 859 676
0 857 766
0 856 856
0 854 945
0 853 1023
0 851 1023
0 850 1023
68 892 0
68 892 0
68 891 68
40 902 121
0 926 151
0 933 223
0 938 303
0 939 390
0 938 481
0 936 571
0 935 661
0 933 751
0 932 841
0 930 930
0 929 1020
0 927 1023
0 926 1023
66 963 0
66 963 0
65 962 66
40 972 121
0 997 148
0 1007 214
0 1012 292
0 1015 376
0 1014 466
0 1012 556
0 1011 646
0 1009 736
0 1008 826
0 1006 915
0 1005 1005
0 1003 1023
0 1002 1023
63 1023 0
63 1023 0
63 1023 64
40 1023 121
0 1023 147
0 1023 205
0 1023 283
0 1023 363
0 1023 451
0 1023 541
0 1023 631
0 1023 721
0 1023 811
0 1023 900
0 1023 990
0 1023 1023
0 1023 1023
60 1023 0
60 1023 0
60 1023 62
39 1023 121
0 1023 146
0 1023 197
0 1023 274
0 1023 352
0 1023 436
0 1023 526
0 1023 616
0 1023 706
0 1023 796
0 1023 885
0 1023 975
0 1023 1023
0 1023 1023
147 0 0
147 0 45
147 0 140
147 0 233
147 0 325
147 0 416
147 0 506
147 0 595
147 0 684
147 0 772
147 0 860
147 0 947
147 0 1023
147 0 1023
148 0 1023
148 0 1023
148 0 1023
147 27 0
147 27 42
147 26 137
147 26 229
147 26 320
147 25 411
147 25 500
147 25 589
147 25 677
147 24 764
147 24 851
147 24 937
147 23 1023
148 23 1023
148 23 1023
148 22 1023
