games/surveyor/assets/luts/vault.3dl
0 256 512 767 1023
0 0 0
0 0 329
0 0 693
0 0 1023
0 0 1023
0 238 0
0 265 271
0 258 636
0 248 1018
0 239 1023
0 532 0
0 571 201
0 564 566
0 558 925
0 551 1023
0 822 0
0 869 145
0 868 502
0 862 862
0 856 1023
0 1023 0
0 1023 107
0 1023 442
0 1023 802
0 1023 1023
209 0 0
209 0 322
210 0 680
211 0 1023
212 0 1023
219 238 0
220 237 280
222 237 606
224 237 920
225 236 1023
231 532 0
231 532 236
175 548 548
171 541 905
173 534 1023
223 819 0
222 818 222
118 851 488
108 847 847
102 840 1023
210 1023 0
209 1023 218
78 1023 447
48 1023 787
42 1023 1023
459 0 0
462 0 310
466 0 658
471 0 994
476 0 1023
500 237 0
505 236 265
509 236 580
514 236 884
518 235 1023
530 531 0
530 530 230
529 529 529
527 528 824
526 526 1023
519 816 0
518 815 220
516 814 523
464 828 829
464 821 1023
503 1023 0
501 1023 217
500 1023 530
415 1023 792
396 1023 1023
724 0 0
731 0 296
740 0 633
748 0 957
757 0 1023
796 236 0
802 235 251
808 235 558
814 234 854
818 233 1023
823 527 0
822 527 226
821 525 525
820 524 820
819 523 1023
809 813 0
807 812 219
805 811 526
803 810 829
800 809 1023
788 1023 0
787 1023 216
786 1023 530
784 1023 840
746 1023 1023
1008 0 0
1019 0 281
1023 0 606
1023 0 919
1023 0 1023
1023 234 0
1023 233 240
1023 232 540
1023 232 834
1023 231 1023
1023 524 0
1023 524 223
1023 522 523
1023 521 819
1023 520 1023
1023 810 0
1023 809 219
1023 808 528
1023 807 835
1023 806 1023
1023 1023 0
1023 1023 213
1023 1023 528
1023 1023 837
1023 1023 1023
