games/surveyor/assets/luts/vault.3dl
0 128 256 384 512 639 767 895 1023
0 0 0
0 0 143
0 0 329
0 0 512
0 0 693
0 0 871
0 0 1023
0 0 1023
0 0 1023
0 98 0
0 111 119
0 108 306
0 101 524
0 97 742
0 94 933
0 93 1023
0 92 1023
0 92 1023
0 238 0
0 268 84
0 265 271
0 261 454
0 258 636
0 254 821
0 248 1018
0 243 1023
0 239 1023
0 383 0
0 412 58
0 419 235
0 415 419
0 412 600
0 409 781
0 405 960
0 402 1023
0 398 1023
0 532 0
0 559 34
0 571 201
0 567 384
0 564 566
0 561 746
0 558 925
0 554 1023
0 551 1023
0 680 0
0 705 24
0 721 169
0 719 351
0 716 533
0 713 713
0 710 893
0 707 1023
0 704 1023
0 822 0
0 844 23
0 869 145
0 871 320
0 868 502
0 865 682
0 862 862
0 859 1023
0 856 1023
0 964 0
0 982 24
0 1015 125
0 1023 290
0 1020 472
0 1017 652
0 1014 832
0 1011 1011
0 1008 1023
0 1023 0
0 1023 24
0 1023 107
0 1023 264
0 1023 442
0 1023 623
0 1023 802
0 1023 981
0 1023 1023
86 0 0
86 0 141
85 0 327
85 0 509
85 0 688
85 0 865
84 0 1023
84 0 1023
84 0 1023
84 97 0
84 97 132
84 96 313
84 96 490
84 96 664
83 95 835
83 95 1003
83 94 1023
83 94 1023
83 238 0
83 238 116
65 258 263
62 254 449
61 246 650
59 240 847
59 237 1023
60 235 1023
63 234 1023
82 383 0
82 383 100
34 411 228
30 408 411
27 405 593
23 402 773
22 397 953
23 393 1023
24 389 1023
80 532 0
80 532 86
12 559 201
0 561 377
0 557 559
0 554 739
0 551 918
0 548 1023
0 545 1023
76 679 0
76 678 76
0 708 175
0 713 344
0 710 526
0 706 707
0 703 886
0 700 1023
0 697 1023
71 821 0
70 820 70
0 854 157
0 864 315
0 862 496
0 859 676
0 856 856
0 853 1023
0 850 1023
66 963 0
65 962 66
0 997 148
0 1012 292
0 1014 466
0 1011 646
0 1008 826
0 1005 1005
0 1002 1023
60 1023 0
60 1023 62
0 1023 146
0 1023 274
0 1023 436
0 1023 616
0 1023 796
0 1023 975
0 1023 1023
209 0 0
209 0 138
209 0 322
209 0 503
210 0 680
210 0 854
211 0 1023
211 0 1023
212 0 1023
211 96 0
212 96 127
212 95 306
213 95 481
214 94 652
214 94 820
215 93 985
216 93 1023
217 92 1023
219 238 0
219 237 111
220 237 280
221 237 445
222 237 606
223 237 765
224 237 920
224 237 1023
225 236 1023
227 384 0
227 384 95
228 384 255
210 398 402
208 391 587
206 387 765
206 384 935
208 383 1023
211 381 1023
231 532 0
231 532 82
231 532 236
185 548 370
175 548 548
172 544 729
171 541 905
172 537 1023
173 534 1023
228 677 0
227 677 74
227 676 227
165 697 344
144 700 516
141 697 697
138 694 877
135 691 1023
133 688 1023
223 819 0
222 819 69
222 818 222
148 844 325
118 851 488
111 850 667
108 847 847
105 844 1023
102 840 1023
217 961 0
216 961 65
216 960 220
139 988 317
97 1000 465
81 1001 637
78 998 817
75 995 995
72 992 1023
210 1023 0
210 1023 61
209 1023 218
136 1023 316
78 1023 447
52 1023 608
48 1023 787
45 1023 965
42 1023 1023
332 0 0
333 0 134
334 0 317
335 0 495
336 0 670
338 0 842
339 0 1011
340 0 1023
342 0 1023
341 95 0
342 94 123
343 94 299
345 93 471
347 93 639
348 92 804
350 92 966
352 91 1023
353 91 1023
358 237 0
359 237 106
361 237 273
362 237 435
364 237 593
366 236 749
367 236 901
369 236 1023
370 236 1023
373 384 0
374 384 91
375 384 249
376 384 402
377 384 553
378 384 702
379 384 849
380 383 994
380 383 1023
381 532 0
381 532 79
381 531 232
381 531 382
357 537 537
357 534 710
357 531 876
358 529 1023
361 527 1023
377 675 0
377 675 72
376 674 225
376 674 376
334 687 511
319 688 688
318 684 866
319 681 1023
320 678 1023
372 818 0
372 817 68
371 817 221
370 816 373
315 835 492
292 839 659
286 837 837
283 834 1016
280 831 1023
365 960 0
365 959 63
364 959 219
363 958 373
303 979 485
269 989 636
256 989 807
253 986 986
250 983 1023
358 1023 0
357 1023 59
356 1023 218
355 1023 374
296 1023 484
248 1023 620
227 1023 779
223 1023 956
220 1023 1023
459 0 0
460 0 130
462 0 310
464 0 486
466 0 658
469 0 827
471 0 994
473 0 1023
476 0 1023
474 93 0
476 93 118
478 92 292
481 92 461
484 91 626
486 91 788
489 90 947
491 90 1023
494 89 1023
500 237 0
502 237 101
505 236 265
507 236 424
509 236 580
512 236 733
514 236 884
516 235 1023
518 235 1023
522 384 0
523 384 87
525 384 243
526 384 395
527 383 545
528 383 692
529 383 838
530 383 983
530 382 1023
530 531 0
530 530 77
530 530 230
529 529 380
529 529 529
528 528 677
527 528 824
527 527 970
526 526 1023
525 674 0
525 673 71
524 673 224
524 672 374
523 672 524
501 677 677
501 674 847
503 672 1008
504 670 1023
519 816 0
519 816 66
518 815 220
517 815 372
516 814 523
479 826 661
464 828 829
464 824 1007
464 821 1023
511 958 0
511 958 62
510 957 219
509 957 374
508 956 527
463 971 654
439 977 807
429 977 977
426 974 1023
503 1023 0
502 1023 58
501 1023 217
500 1023 374
500 1023 530
452 1023 652
415 1023 792
400 1023 948
396 1023 1023
589 0 0
591 0 126
594 0 303
598 0 476
601 0 646
604 0 812
607 0 976
611 0 1023
614 0 1023
612 92 0
614 91 113
618 91 284
621 90 450
625 90 612
628 89 772
631 89 928
635 88 1023
638 88 1023
646 236 0
649 236 97
652 236 258
655 236 415
658 235 568
660 235 719
663 235 868
665 235 1015
667 234 1023
672 384 0
673 383 83
675 383 238
676 383 389
677 383 537
678 382 685
678 382 831
679 381 976
679 381 1023
678 529 0
677 529 75
677 528 228
676 528 378
675 527 527
675 526 675
674 526 822
674 525 968
673 525 1023
672 672 0
672 672 69
671 671 222
671 671 373
670 670 523
669 670 672
668 669 820
668 669 967
667 668 1023
665 815 0
664 814 65
663 814 220
662 813 373
661 813 524
660 812 676
641 817 830
642 814 999
643 812 1023
655 957 0
655 956 61
654 956 218
653 955 374
652 955 529
651 954 682
621 964 824
606 966 979
605 963 1023
646 1023 0
646 1023 57
645 1023 217
644 1023 374
643 1023 531
642 1023 686
607 1023 819
581 1023 963
571 1023 1023
724 0 0
727 0 121
731 0 296
735 0 466
740 0 633
744 0 796
748 0 957
753 0 1023
757 0 1023
754 90 0
757 90 108
761 89 276
766 89 439
770 88 599
774 88 756
778 87 910
782 87 1023
786 86 1023
796 236 0
798 235 92
802 235 251
805 235 406
808 235 558
811 234 707
814 234 854
816 234 1000
818 233 1023
823 383 0
823 383 80
825 382 234
825 382 384
826 381 532
826 381 680
826 380 826
825 380 972
825 379 1023
823 527 0
823 527 73
822 527 226
822 526 376
821 525 525
821 525 673
820 524 820
820 524 967
819 523 1023
818 671 0
817 670 68
817 670 221
816 669 373
815 669 523
814 668 672
813 668 821
812 667 970
811 667 1023
809 813 0
808 813 64
807 812 219
806 812 373
805 811 526
804 811 678
803 810 829
802 810 981
800 809 1023
798 955 0
797 955 60
796 954 218
795 954 374
794 953 530
793 953 684
792 952 838
777 956 994
777 953 1023
788 1023 0
788 1023 55
787 1023 216
786 1023 374
786 1023 530
785 1023 686
784 1023 840
761 1023 985
746 1023 1023
863 0 0
867 0 116
873 0 288
878 0 456
883 0 619
888 0 780
894 0 938
899 0 1023
904 0 1023
900 89 0
904 88 103
909 88 269
914 87 429
919 87 586
924 86 741
928 86 892
933 85 1023
937 85 1023
947 235 0
950 235 89
954 234 245
957 234 398
960 234 548
963 233 696
965 233 843
967 232 987
969 232 1023
972 382 0
972 381 78
973 381 230
973 380 381
972 380 530
971 379 677
971 379 824
970 378 970
970 378 1023
969 526 0
968 526 71
968 525 224
967 524 375
967 524 524
966 523 672
965 523 819
965 522 966
964 522 1023
962 669 0
962 669 67
961 668 221
960 668 372
958 667 523
957 667 673
956 666 823
955 666 972
954 665 1023
952 812 0
951 811 63
949 811 219
948 810 373
947 810 527
946 809 680
945 809 832
943 808 984
942 808 1023
940 954 0
939 953 58
938 953 217
937 952 374
936 952 530
935 951 685
934 951 840
933 950 994
932 950 1023
930 1023 0
930 1023 54
929 1023 214
928 1023 373
928 1023 529
927 1023 684
927 1023 839
926 1023 992
914 1023 1023
1008 0 0
1013 0 112
1019 0 281
1023 0 445
1023 0 606
1023 0 764
1023 0 919
1023 0 1023
1023 0 1023
1023 87 0
1023 87 99
1023 86 261
1023 86 419
1023 85 574
1023 85 726
1023 84 876
1023 84 1023
1023 83 1023
1023 234 0
1023 234 85
1023 233 240
1023 233 391
1023 232 540
1023 232 688
1023 232 834
1023 231 979
1023 231 1023
1023 380 0
1023 380 76
1023 379 228
1023 379 379
1023 378 528
1023 378 676
1023 377 823
1023 377 969
1023 376 1023
1023 524 0
1023 524 70
1023 524 223
1023 523 374
1023 522 523
1023 522 671
1023 521 819
1023 521 967
1023 520 1023
1023 668 0
1023 667 65
1023 667 220
1023 666 372
1023 666 524
1023 665 675
1023 665 825
1023 664 976
1023 664 1023
1023 810 0
1023 810 61
1023 809 219
1023 809 374
1023 808 528
1023 808 682
1023 807 835
1023 807 988
1023 806 1023
1023 952 0
1023 952 57
1023 951 217
1023 951 374
1023 950 531
1023 950 686
1023 949 841
1023 949 995
1023 948 1023
1023 1023 0
1023 1023 52
1023 1023 213
1023 1023 371
1023 1023 528
1023 1023 683
1023 1023 837
1023 1023 991
1023 1023 1023
